!!!!SEGMENT: pl-cz--ii-148--001_lessel-franciszek--msza-b-kyrie.krn
!!!id: 18xx:275
!!!COM: Lessel, Franciszek
!!!COM-rism: pe30004332
!!!CDT: 1780-1838/12/26
!!!CNT: Polish
!!!OTL: Msza B - Kyrie
!!!PDT: 1813
!!!SMS-siglum: PL-CZ
!!!SMS-shelfmark: II-148
!!!NIFC-rismID:
!!!URL-scan: http://repozytorium.nifc.pl/skany/pl-cz-nut--ii-148
!!!ONB-nifc: UWAGA: części Mszy: Kyrie, Gloria, Credo, Offertorium, Sanctus, Agnus Dei
**kern	**fb	**dynam	**kern	**dynam	**kern	**text	**dynam	**kern	**text	**dynam	**kern	**text	**dynam	**kern	**text	**dynam	**kern	**dynam	**kern	**dynam	**kern	**dynam	**kern	**dynam
*part10	*	*part10	*part9	*part9	*part8	*part8	*part8	*part7	*part7	*part7	*part6	*part6	*part6	*part5	*part5	*part5	*part4	*part4	*part3	*part3	*part2	*part2	*part1	*part1
*staff10	*	*	*staff9	*	*staff8	*staff8	*	*staff7	*staff7	*	*staff6	*staff6	*	*staff5	*staff5	*	*staff4	*	*staff3	*	*staff2	*	*staff1	*
*I"Organo	*	*	*I"Basso e Violoncello	*	*I"Basso	*	*	*I"Tenore	*	*	*I"Alto	*	*	*I"Soprano	*	*	*I"Corno 2do in Es	*	*I"Corno 1mo in Es	*	*I"Clarinetto 2do in B	*	*I"Clarinetto 1mo in B	*
*I'Org.	*	*	*I'B. e V-c.	*	*I'B.	*	*	*I'T.	*	*	*I'A.	*	*	*I'S.	*	*	*I'C. 2 in Es	*	*I'C. 1 in Es	*	*I'Cl. 2 in B	*	*I'Cl.1 in B	*
*clefF4	*	*	*clefF4	*	*clefF4	*	*	*clefC4	*	*	*clefC3	*	*	*clefC1	*	*	*clefG2	*	*clefG2	*	*clefG2	*	*clefG2	*
*	*	*	*	*	*	*	*	*	*	*	*	*	*	*	*	*	*ITrd5c9	*	*ITrd5c9	*	*ITrd1c2	*	*ITrd1c2	*
*k[b-e-]	*	*	*k[b-e-]	*	*k[b-e-]	*	*	*k[b-e-]	*	*	*k[b-e-]	*	*	*k[b-e-]	*	*	*k[b-e-]	*	*k[b-e-]	*	*k[b-e-]	*	*k[b-e-]	*
*M2/2	*	*	*M2/2	*	*M2/2	*	*	*M2/2	*	*	*M2/2	*	*	*M2/2	*	*	*M2/2	*	*M2/2	*	*M2/2	*	*M2/2	*
*met(c|)	*	*	*met(c|)	*	*met(c|)	*	*	*met(c|)	*	*	*met(c|)	*	*	*met(c|)	*	*	*met(c|)	*	*met(c|)	*	*met(c|)	*	*met(c|)	*
=1	=1	=1	=1	=1	=1	=1	=1	=1	=1	=1	=1	=1	=1	=1	=1	=1	=1	=1	=1	=1	=1	=1	=1	=1
!	!	!LO:HP:t=po	!	!LO:HP:t=po	!	!	!LO:HP:t=po	!LO:HP:t=po	!	!LO:DY:a	!	!	!	!LO:HP:t=po	!	!	!LO:TX:a:t=Problem&colon; 00r 00r 00r 0r 1r 15	!	!LO:TX:a:t=Andante	!	!LO:TX:a:t=Andante	!	!LO:TX:a:t=Andante	!
!LO:TX:a:t=Andante	!	!	!LO:TX:a:t=Andante	!	!LO:TX:a:t=Andante	!	!LO:DY:a	!LO:TX:a:t=Andante	!	!LO:DY:a	!LO:TX:a:t=Andante	!	!	!LO:TX:a:t=Andante	!	!LO:DY:a	!LO:TX:a:t=Andante	!	!LO:TX:a:t=Problem&colon; 00r 00r 00r 0r 1r 15	!	!LO:TX:a:t=Problem&colon; 00r 00r 00r 0r 1r 15	!	!LO:TX:a:t=Problem&colon; 00r 00r 00r 0r 1r 15	!
*	*	*	*	*	*2\right	*	*	*2\right	*	*	*	*	*	*	*	*	*	*	*	*	*	*	*	*
2BB-/	5 3	p	2BB-/	p	4BB-/	Roz-	p	4B-\	Roz-	p	4d\	Roz-	.	4f/	Roz-	p	1r	.	1r	.	1r	.	1r	.
.	.	.	.	.	2BB-/	-sądź	.	2B-\	-sądz	.	(>4d\	-sądz	.	(4f/	-sądz	.	.	.	.	.	.	.	.	.
2BB-/	6 4	.	2BB-/	.	.	.	.	.	.	.	4e-\)	.	.	4g/)	.	.	.	.	.	.	.	.	.	.
.	7 2	.	.	.	4BB-/	mnie	.	4B-\	mnie	.	4c\	mnie	.	4a/	mnie	.	.	.	.	.	.	.	.	.
=2	=2	=2	=2	=2	=2	=2	=2	=2	=2	=2	=2	=2	=2	=2	=2	=2	=2	=2	=2	=2	=2	=2	=2	=2
*2\right	*	*	*2\right	*	*	*	*	*	*	*	*2\right	*	*	*2\right	*	*	*	*	*	*	*	*	*	*
2BB-/	8 3	.	2BB-/	.	2BB-/	Bo-	.	2B-\	Bo-	.	2d\	Bo-	.	2b-\	Bo-	.	1r	.	1r	.	1r	.	1r	.
2BB-/	.	.	2BB-/	.	2BB-/	-że	.	2B-\	-że	.	2d\	-że	.	2b-\	-że	.	.	.	.	.	.	.	.	.
=3	=3	=3	=3	=3	=3	=3	=3	=3	=3	=3	=3	=3	=3	=3	=3	=3	=3	=3	=3	=3	=3	=3	=3	=3
2BB-/	.	.	2BB-/	.	4BB-/	po-	.	4B-\	po-	.	4d\	po-	.	4f/	po-	.	1r	.	1r	.	1r	.	1r	.
.	.	.	.	.	4BB-/	-znay	.	4B-\	-znay	.	4d\	-znay	.	4dd\	-znay	.	.	.	.	.	.	.	.	.
4F\	7	.	4F\	.	4F\	mo-	.	4A\	mo-	.	4e-\	mo-	.	4cc\	mo-	.	.	.	.	.	.	.	.	.
4G\	-	.	4G\	.	4G\	-ię	.	4B-\	-ię	.	4d\	-ią	.	4b-\	-ię	.	.	.	.	.	.	.	.	.
=4	=4	=4	=4	=4	=4	=4	=4	=4	=4	=4	=4	=4	=4	=4	=4	=4	=4	=4	=4	=4	=4	=4	=4	=4
!	!	!	!	!	!LO:TX:a:t=Problem&colon; laseczki z prawej strony półnut	!	!	!	!	!	!	!	!	!	!	!	!	!	!	!	!	!	!	!
.	.	.	.	.	.	.	.	.	.	.	.	.	.	4qqa/	.	.	.	.	.	.	.	.	.	.
2E-\	4	.	2E-\	.	2E-\	spra-	.	2B-\	spra-	.	2e-\	spra-	.	2g\	spra-	.	1r	.	1r	.	1r	.	1r	.
.	3	.	.	.	.	.	.	.	.	.	.	.	.	.	.	.	.	.	.	.	.	.	.	.
2BB-/	.	.	2BB-/	.	2BB-/	-wę	.	2B-\	-wę	.	2d\	-wę	.	2f\	-wę	.	.	.	.	.	.	.	.	.
=5	=5	=5	=5	=5	=5	=5	=5	=5	=5	=5	=5	=5	=5	=5	=5	=5	=5	=5	=5	=5	=5	=5	=5	=5
!	!	!	!	!	!LO:LB:g=original	!	!	!LO:LB:g=original	!	!	!LO:LB:g=original	!	!	!LO:LB:g=original	!	!	!	!	!	!	!	!	!	!
2BB-/	.	.	2BB-/	.	2BB-/	wſzczę-	.	2B-\	wszczę-	.	2d\	wszczę-	.	2f/	wszczę-	.	1r	.	1r	.	1r	.	1r	.
2BB-/	6 4	.	2BB-/	.	4BB-/	-tą	.	4B-\	-tą	.	4e-\	-tą	.	4g\	-tą	.	.	.	.	.	.	.	.	.
.	7 2	.	.	.	4BB-/	bez-	.	4c\	bez-	.	4e-\	bez-	.	4a\	bez-	.	.	.	.	.	.	.	.	.
=6	=6	=6	=6	=6	=6	=6	=6	=6	=6	=6	=6	=6	=6	=6	=6	=6	=6	=6	=6	=6	=6	=6	=6	=6
!LO:LB:g=original	!	!	!	!	!	!	!	!	!	!	!	!	!	!	!	!	!	!	!	!	!	!	!	!
2BB-/	8 3	.	2BB-/	.	2BB-/	-bo-	.	2d\	-bo-	.	2f\	-bo-	.	2b-\	-boż-	.	1r	.	1r	.	1r	.	1r	.
4BB-/	.	.	4BB-/	.	4BB-/	-żnem	.	4d\	-żnem	.	4f\	-żnem	.	4b-\	-nem	.	.	.	.	.	.	.	.	.
4C/	6	.	4C/	.	4C/	ple-	.	4c\	ple-	.	4e-\	ple-	.	4a\	ple-	.	.	.	.	.	.	.	.	.
=7	=7	=7	=7	=7	=7	=7	=7	=7	=7	=7	=7	=7	=7	=7	=7	=7	=7	=7	=7	=7	=7	=7	=7	=7
!	!	!	!LO:LB:g=original	!	!	!	!	!	!	!	!	!	!	!	!	!	!	!	!	!	!	!	!	!
2D\	6 4	.	2D\	.	1D	-mie-	.	(>2B-\	-mie-	.	1d	-mie-	.	(<2g/	-mie-	.	1r	.	1r	.	1r	.	1r	.
2D\	5 #	.	2D\	.	.	.	.	2A\)	.	.	.	.	.	2f#X/)	.	.	.	.	.	.	.	.	.	.
=8	=8	=8	=8	=8	=8	=8	=8	=8	=8	=8	=8	=8	=8	=8	=8	=8	=8	=8	=8	=8	=8	=8	=8	=8
4GG/	-_	.	4GG/	.	2GG/	-niem	.	2B-\	-niem	.	2d\	-niem,	.	2g\	niem,	.	1r	.	1r	.	1r	.	1r	.
8BB-/L	.	.	8BB-/L	.	.	.	.	.	.	.	.	.	.	.	.	.	.	.	.	.	.	.	.	.
8D/J	.	.	8D/J	.	.	.	.	.	.	.	.	.	.	.	.	.	.	.	.	.	.	.	.	.
4G\	x	.	4G\	.	2r	.	.	2r	.	.	2r	.	.	2r	.	.	.	.	.	.	.	.	.	.
4F\	.	.	4F\	.	.	.	.	.	.	.	.	.	.	.	.	.	.	.	.	.	.	.	.	.
=9	=9	=9	=9	=9	=9	=9	=9	=9	=9	=9	=9	=9	=9	=9	=9	=9	=9	=9	=9	=9	=9	=9	=9	=9
2E-\	.	.	2E-\	.	2E-X\	przed	.	2B-\	przed	.	2e-\	przed	.	2g\	przed	.	1r	.	1r	.	1r	.	1r	.
2E-\	.	.	2E-\	.	4E-\	złym	.	4B-\	złym	.	4e-\	złym	.	4g\	złym	.	.	.	.	.	.	.	.	.
.	.	.	.	.	4E-\	Czło-	.	4B-\	czło-	.	4e-\	Czło-	.	4g\	Czło-	.	.	.	.	.	.	.	.	.
=10	=10	=10	=10	=10	=10	=10	=10	=10	=10	=10	=10	=10	=10	=10	=10	=10	=10	=10	=10	=10	=10	=10	=10	=10
!LO:TX:a:t=problem:fermata nad b.c.	!	!	!	!	!	!	!	!	!	!	!	!	!	!	!	!	!	!	!	!	!	!	!	!
2D\	7- 5-	.	2D\	.	2D\	-wie-	.	2c-X\	-wie-	.	2f\	-wie-	.	2a-X\	-wie-	.	1r	.	1r	.	1r	.	1r	.
2E-\	.	.	2E-\	.	2E-\	-kiem	.	2B-\	-kiem	.	2e-\	-kiem	.	2g\	-kiem	.	.	.	.	.	.	.	.	.
=11	=11	=11	=11	=11	=11	=11	=11	=11	=11	=11	=11	=11	=11	=11	=11	=11	=11	=11	=11	=11	=11	=11	=11	=11
!	!	!	!	!	!	!	!	!	!	!	!LO:LB:g=original	!	!	!LO:LB:g=original	!	!	!	!	!	!	!	!	!	!
4D-X/	2	.	4D-X/	.	4E-\	o-	.	4d-X\	o-	.	4e-\	o-	.	4g\	o-	.	1r	.	1r	.	1r	.	1r	.
4C/	6	.	4C/	.	4E-\	-chroń	.	4cn\	-chroń	.	4e-\	-chroń	.	4a-X\	-chroń	.	.	.	.	.	.	.	.	.
!	!	!	!	!	!LO:LB:g=original	!	!	!LO:LB:g=original	!	!	!	!	!	!	!	!	!	!	!	!	!	!	!	!
4BB-/	6 4	.	4BB-/	.	4E-\	mo-	.	4B-\	mo-	.	4e-\	mo-	.	4b-\	mo-	.	.	.	.	.	.	.	.	.
4AA-X/	8 3	.	4AA-X/	.	4E-\	-ią	.	4A-X\	-ią	.	4e-\	-ią	.	4cc\	-ią	.	.	.	.	.	.	.	.	.
=12	=12	=12	=12	=12	=12	=12	=12	=12	=12	=12	=12	=12	=12	=12	=12	=12	=12	=12	=12	=12	=12	=12	=12	=12
4GG/	6_ 5	.	4GG/	.	2E-\	sła-	.	2G/	sła-	.	2e-\	sła-	.	2dd-X\	sła-	.	1r	.	1r	.	1r	.	1r	.
8BB-/L	.	.	8BB-/L	.	.	.	.	.	.	.	.	.	.	.	.	.	.	.	.	.	.	.	.	.
8E-/J	.	.	8E-/J	.	.	.	.	.	.	.	.	.	.	.	.	.	.	.	.	.	.	.	.	.
4G\	.	.	4G\	.	4E-\	-wę	.	4G/	-wę	.	4e-\	-wę	.	4b-\	-wę	.	.	.	.	.	.	.	.	.
4GG/	6	.	4GG/	.	4E-\	i	.	4G/	i	.	4e-\	i	.	4b-\	i	.	.	.	.	.	.	.	.	.
=13	=13	=13	=13	=13	=13	=13	=13	=13	=13	=13	=13	=13	=13	=13	=13	=13	=13	=13	=13	=13	=13	=13	=13	=13
!LO:LB:g=original	!	!	!	!	!	!	!	!	!	!	!	!	!	!	!	!	!	!	!	!	!	!	!	!
4AA-X/	5_ 3	.	4AA-X/	.	(<4AA-X/	wyr-	.	2.A-X\	wyr-	.	2.e-\	wyr-	.	2.cc\	wyr-	.	1r	.	1r	.	1r	.	1r	.
4BB-/	.	.	4BB-/	.	4BB-/	.	.	.	.	.	.	.	.	.	.	.	.	.	.	.	.	.	.	.
4C/	.	.	4C/	.	4C/)	.	.	.	.	.	.	.	.	.	.	.	.	.	.	.	.	.	.	.
4D-X/	.	.	4D-X/	.	4D-X/	-wyi	.	4A-\	-wyi	.	4f\	-wyi	.	4cc\	-wyi	.	.	.	.	.	.	.	.	.
=14	=14	=14	=14	=14	=14	=14	=14	=14	=14	=14	=14	=14	=14	=14	=14	=14	=14	=14	=14	=14	=14	=14	=14	=14
.	.	.	.	.	.	.	.	.	.	.	.	.	.	4qqcc/	.	.	.	.	.	.	.	.	.	.
2E-T\	7-_ 6 5	.	(2E-T\	.	2E-\	dziel-	.	2G\	dziel-	.	2d-X\	dziel-	.	2b-\	dziel-	.	1r	.	1r	.	1r	.	1r	.
4F\	-	.	4F\)	.	4F\	-nym	.	4A-X\	-nym	.	4c\	-nym	.	4a-X\	-nym	.	.	.	.	.	.	.	.	.
4BB-/	6 3-	.	4BB-/	.	4BB-/	ra-	.	4B-\	ra-	.	4d-\	ra-	.	4g\	ra-	.	.	.	.	.	.	.	.	.
=15	=15	=15	=15	=15	=15	=15	=15	=15	=15	=15	=15	=15	=15	=15	=15	=15	=15	=15	=15	=15	=15	=15	=15	=15
!	!	!	!LO:LB:g=original	!	!	!	!	!	!	!	!	!	!	!	!	!	!	!	!	!	!	!	!	!
2C/	6- 4	.	2C/	.	1C	-mie-	.	(>2A-X\	-mie-	.	1c	-mie-	.	2f/	-mie-	.	1r	.	1r	.	1r	.	1r	.
2CC/	7 n	.	2C/	.	.	.	.	2G\)	.	.	.	.	.	2en/	.	.	.	.	.	.	.	.	.	.
=16	=16	=16	=16	=16	=16	=16	=16	=16	=16	=16	=16	=16	=16	=16	=16	=16	=16	=16	=16	=16	=16	=16	=16	=16
!	!	!	!	!	!	!	!	!	!	!	!LO:LB:g=original	!	!	!	!	!	!	!	!	!	!	!	!	!
2FF;/	n	.	2FF;/	.	2FF;/	-niem	.	2An;\	-niem	.	2c;\	-niem	.	2f;/	-niem,	.	1r;	.	1r;	.	2r;	.	2r;	.
4r	.	.	4r	.	4r	.	.	4r	.	.	4r	.	.	4r	.	.	.	.	.	.	4r	.	4r	.
!LO:TX:a:t=unis	!	!	!	!	!	!	!	!	!	!	!	!	!	!	!	!	!	!	!	!	!LO:HP:t=po	!	!LO:HP:t=po	!
4F#X\	.	.	4FF#X/	.	4FF#X/	boś	.	4F#X/	boś	.	4f#X\	bos	.	4f#X/	boś	.	.	.	.	.	4g-X/	p	4g-X/	p
=17	=17	=17	=17	=17	=17	=17	=17	=17	=17	=17	=17	=17	=17	=17	=17	=17	=17	=17	=17	=17	=17	=17	=17	=17
!	!	!	!	!	!LO:LB:g=original	!	!	!LO:LB:g=original	!	!	!	!	!	!LO:LB:g=original	!	!	!LO:TX:a:t=Problem&colon; 22	!	!LO:TX:a:t=Problem&colon; 22	!	!	!	!	!
2F#X\	.	.	2FF#X/	.	2FF#X/	Ty	.	2F#X/	ty	.	2f\	Ty	.	2f#X/	Ty	.	1r	.	1r	.	[<1g-X	.	[<1g-X	.
2F#\	.	.	2FF#/	.	2FF#/	me	.	2F#/	me	.	2f\	me	.	2f#/	me	.	.	.	.	.	.	.	.	.
=18	=18	=18	=18	=18	=18	=18	=18	=18	=18	=18	=18	=18	=18	=18	=18	=18	=18	=18	=18	=18	=18	=18	=18	=18
2F#X\	.	.	2FF#X/	.	2FF#X/	Bó-	.	2.F#X/	Bó-	.	2.f#X\	Bó-	.	2.f#X/	Bó-	.	1r	.	1r	.	1g-X]	.	1g-X]	.
2F#\	.	.	2FF#/	.	2FF#/	-stwo	.	.	.	.	.	.	.	.	.	.	.	.	.	.	.	.	.	.
.	.	.	.	.	.	.	.	4F#/	-stwo	.	4f#\	-stwo	.	4f#/	-stwo	.	.	.	.	.	.	.	.	.
=19	=19	=19	=19	=19	=19	=19	=19	=19	=19	=19	=19	=19	=19	=19	=19	=19	=19	=19	=19	=19	=19	=19	=19	=19
!	!	!	!	!LO:DY:b	!	!	!	!	!	!	!	!	!	!	!	!	!	!	!	!	!	!	!	!
2F#X\	#	.	4FF#X/	<	4FF#X/	si-	.	4F#X/	si-	.	4f#X\	si-	.	4f#X/	ſi-	.	1r	.	1r	.	2g-X/	.	2g-X/	.
.	.	.	4F\	.	4F\	-ła	.	4A#X\	-ła	.	4f#\	-ła	.	4f#/	-ła	.	.	.	.	.	.	.	.	.
4G#X\	6| 4| 3n	.	4G#X\	.	4G#X\	i	.	4Bn\	i	.	4e#X\	i	.	4e#X/	i	.	.	.	.	.	4f/	<	4f/	.
4F#\	8 #	.	4F#X\	[[	4F#X\	o-	.	4A#\	o-	.	4f#\	o-	.	4f#/	o-	.	.	.	.	.	4g-/	.	4g-/	.
=20	=20	=20	=20	=20	=20	=20	=20	=20	=20	=20	=20	=20	=20	=20	=20	=20	=20	=20	=20	=20	=20	=20	=20	=20
!LO:LB:g=original	!	!	!	!	!	!	!	!	!	!	!	!	!	!	!	!	!	!	!	!	!	!	!	!
2.En\	n	.	2.En\	.	2En\	-bro-	.	2Bn\	-bro-	.	2gn\	-bro-	.	2gn\	-bro-	.	1r	.	1r	.	1gn	.	1gn	.
.	.	.	.	.	4E\	-na	.	4B\	-na	.	4g\	-na	.	4g\	-na	.	.	.	.	.	.	.	.	.
(8E\L	.	.	(8E\L	.	8r	.	.	8r	.	.	8r	.	.	8r	.	.	.	.	.	.	.	.	.	.
8F#X\J)	.	.	8F#X\J)	.	8Gn\	boś	.	8B\	boś	.	8g\	boś	.	8g\	boś	.	.	.	.	.	.	.	.	.
=21	=21	=21	=21	=21	=21	=21	=21	=21	=21	=21	=21	=21	=21	=21	=21	=21	=21	=21	=21	=21	=21	=21	=21	=21
!	!	!	!	!LO:HP:t=fo	!	!	!	!	!	!	!LO:LB:g=original	!	!	!	!	!	!	!	!	!	!	!	!LO:TX:b:t=cresc.	!
2Gn\	n	.	2G\	f	2G\	ty	.	2Bn\	ty	.	2g\	Ty	.	2g\	Ty	.	1r	.	1r	.	(<1g	[	1g	.
2GG/	.	.	2GG/	<	2G\	me	.	2B\	me	.	2d\	me	.	2g\	me	.	.	.	.	.	.	.	.	.
=22	=22	=22	=22	=22	=22	=22	=22	=22	=22	=22	=22	=22	=22	=22	=22	=22	=22	=22	=22	=22	=22	=22	=22	=22
!	!	!	!	!	!	!	!	!	!	!	!	!	!	!LO:TX:a:t=crescendo	!	!	!	!	!	!	!	!	!	!
2D\	#	.	2D\	.	2D\	Bó-	.	2A\	Bó-	.	2.d\	Bó-	.	2f#X\	Bó-	.	1r	.	1r	.	2f#X/)	.	2f#X/	.
!	!	!	!	!	!	!	!	!	!	!	!	!	!	!	!	!	!	!	!	!	!LO:TX:b:t=cresc.	!	!	!
2GG/	n	.	2GG/	[	2GG/	-stwo	.	2Bn\	-stwo	.	.	.	.	2g\	-stwo	.	.	.	.	.	2g/	.	2g/	.
.	.	.	.	.	.	.	.	.	.	.	4d\	-stwo	.	.	.	.	.	.	.	.	.	.	.	.
=23	=23	=23	=23	=23	=23	=23	=23	=23	=23	=23	=23	=23	=23	=23	=23	=23	=23	=23	=23	=23	=23	=23	=23	=23
!	!	!	!LO:LB:g=original	!	!LO:LB:g=original	!	!	!LO:LB:g=original	!	!	!	!	!	!LO:LB:g=original	!	!	!	!	!	!	!	!	!	!
4GG/	n	.	4GG/	.	4GG/	si-	.	4Bn\	si-	.	4d\	si-	.	4g\	ſi-	.	1r	.	1r	.	2g/	.	2g/	.
4G\	.	.	4G\	.	4G\	-ła	.	4B\	-ła	.	4d\	-ła	.	4g\	-ła	.	.	.	.	.	.	.	.	.
4A\	6| 3	.	4A\	.	4A\	i	.	4c\	i	.	4d\	i	.	4f#X\	i	.	.	.	.	.	4f#X/	.	4f#X/	<
4G\	8 3	.	4G\	.	4G\	o-	.	4B\	o-	.	4d\	o-	.	4g\	o-	.	.	.	.	.	4g/	.	4g/	.
=24	=24	=24	=24	=24	=24	=24	=24	=24	=24	=24	=24	=24	=24	=24	=24	=24	=24	=24	=24	=24	=24	=24	=24	=24
2Fn\	-	.	2Fn\	.	2Fn\	-bro-	.	2c\	-bro-	.	2fn\	-bro-	.	2a-X\	-bro-	.	1r	.	1r	.	1a-X	.	1a-X	[[
4FF/	.	.	4FF/	.	4F\	-na	.	4c\	-na	.	4f\	-na	.	2a-\	-na	.	.	.	.	.	.	.	.	.
4r	.	.	4r	.	4r	.	.	4r	.	.	4r	.	.	.	.	.	.	.	.	.	.	.	.	.
=25	=25	=25	=25	=25	=25	=25	=25	=25	=25	=25	=25	=25	=25	=25	=25	=25	=25	=25	=25	=25	=25	=25	=25	=25
*clefC1	*	*	*	*	*	*	*	*	*	*	*	*	*	*	*	*	*	*	*	*	*	*	*	*
!	!	!	!	!	!LO:TX:a:t=Problem&colon; 0r 2	!	!	!	!	!	!LO:TX:a:t=Problem&colon; 0r 1r 3	!	!	!	!	!	!	!	!	!	!LO:TX:a:t=Problem&colon; 0r 1r 3	!	!LO:LB:g=original	!
4r	.	.	1r	.	1r	.	.	1r	.	.	1r	.	.	4r	.	.	1r	.	1r	.	1r	.	4r	.
!	!	!	!	!	!	!	!	!	!	!	!	!	!	!LO:HP:t=for	!	!LO:DY:a	!	!	!	!	!	!	!LO:HP:t=fo	!
4cc\	.	.	.	.	.	.	.	.	.	.	.	.	.	4cc\	Za	f	.	.	.	.	.	.	4cc\	f
4bn\	.	.	.	.	.	.	.	.	.	.	.	.	.	4bn\	coż	.	.	.	.	.	.	.	4bX\	.
!	!	!	!	!	!	!	!	!LO:HP:t=for	!	!	!	!	!	!	!	!	!	!	!	!	!	!	!	!
4g\	.	.	.	.	.	.	.	.	.	f	.	.	.	4g\	od-	.	.	.	.	.	.	.	4g\	.
*	*	*	*clefC4	*	*	*	*	*	*	*	*	*	*	*	*	*	*	*	*	*	*	*	*2\right	*
=26	=26	=26	=26	=26	=26	=26	=26	=26	=26	=26	=26	=26	=26	=26	=26	=26	=26	=26	=26	=26	=26	=26	=26	=26
!	!	!	!	!LO:HP:t=fo	!	!	!	!	!	!	!	!	!	!	!	!	!	!	!	!	!	!	!	!
4a-X\	.	.	4r	.	1r	.	.	4r	.	.	1r	.	.	2a-X\	-py-	.	1r	.	1r	.	1r	.	2a-X\	.
!	!	!	!LO:TX:a:t=Violone	!	!	!	!	!	!	!	!	!	!	!	!	!	!	!	!	!	!	!	!	!
*clefC4	*	*	*	*	*	*	*	*	*	*	*	*	*	*	*	*	*	*	*	*	*	*	*	*
4c\	6-	.	4c\	f	.	.	.	4c\	za	.	.	.	.	.	.	.	.	.	.	.	.	.	.	.
4Bn\	6	.	4Bn\	.	.	.	.	4Bn\	coż	.	.	.	.	4g\	-chaſz	.	.	.	.	.	.	.	4g/	.
4G/	7 n	.	4G\	.	.	.	.	4G/	od-	.	.	.	.	4f\	od-	.	.	.	.	.	.	.	4f/	.
=27	=27	=27	=27	=27	=27	=27	=27	=27	=27	=27	=27	=27	=27	=27	=27	=27	=27	=27	=27	=27	=27	=27	=27	=27
!	!	!	!LO:TX:a:t=Basso	!	!	!	!	!	!	!	!	!	!	!	!	!	!	!	!	!	!	!	!	!
4A-X\	.	.	4A-X\	.	4r	.	.	2A-X\	-py-	.	1r	.	.	2e-X/	-py-	.	1r	.	1r	.	1r	.	2e-X/	.
*clefF4	*	*	*clefF4	*	*	*	*	*	*	*	*	*	*	*	*	*	*	*	*	*	*	*	*	*
4A-X\	3	.	4A-X\	.	4A-X\	Za	.	.	.	.	.	.	.	.	.	.	.	.	.	.	.	.	.	.
4G\	6	.	4G\	.	4G\	coż	.	4B-\	-chasz	.	.	.	.	4ee-\	-chaſz	.	.	.	.	.	.	.	4ee-\	.
!	!	!	!	!	!	!	!	!	!	!	!	!	!	!LO:TX:a:t=problem: rozdzielanie słów na łamaniu linii oznaczone '='	!	!	!	!	!	!	!	!	!	!
4E-\	7-	.	4E-\	.	4E-\	od-	.	4B-\	od-	.	.	.	.	4dd-X\	grzeſz-	.	.	.	.	.	.	.	4dd-X\	.
=28	=28	=28	=28	=28	=28	=28	=28	=28	=28	=28	=28	=28	=28	=28	=28	=28	=28	=28	=28	=28	=28	=28	=28	=28
!	!	!	!	!	!	!	!	!	!	!	!LO:LB:g=original	!	!	!	!	!	!	!	!	!	!	!	!	!
2F\	-	.	2F\	.	2F\	-py-	.	(>4B-\	-py-	.	4r	.	.	2.cc\	-ni-	.	1r	.	1r	.	4r	.	2.cc\	.
.	.	.	.	.	.	.	.	4A-X\)	.	.	4f\	za	.	.	.	.	.	.	.	.	4f/	.	.	.
!	!	!	!	!	!	!	!	!LO:LB:g=original	!	!	!	!	!	!	!	!	!	!	!	!	!	!	!	!
(4C/	n_	.	(<4C/	.	4C/	-chasz	.	4G/	-chasz	.	4en\	cóż	.	.	.	.	.	.	.	.	4eX/	.	.	.
8BBn/L	.	.	8BBn/L	.	4C/	od-	.	4En/	grze-	.	4c\	od-	.	4b-\	-ka	.	.	.	.	.	4c/	.	4b-\	.
8C/J)	.	.	8C/J)	.	.	.	.	.	.	.	.	.	.	.	.	.	.	.	.	.	.	.	.	.
=29	=29	=29	=29	=29	=29	=29	=29	=29	=29	=29	=29	=29	=29	=29	=29	=29	=29	=29	=29	=29	=29	=29	=29	=29
!	!	!	!	!	!	!	!	!	!	!	!	!	!	!	!	!	!	!	!	!	!LO:LB:g=original	!	!	!
2E-\	4n	.	2E-\	f	2E-\	-py-	.	2F/	-szni-	.	2c\	-py-	.	4r	.	.	1r	.	1r	.	(<2c/	.	4r	.
.	.	.	.	.	.	.	.	.	.	.	.	.	.	4an\	Za	.	.	.	.	.	.	.	4an\	.
4D-X\	6	.	4D-X\	.	4D-X\	-chaſz	.	4f\	-ka	.	4B-X/	-chasz	.	4b-\	coż	.	.	.	.	.	4B-/)	.	4b-\	.
4AAn/	6 5	.	4AA/	.	4AAn/	grzeſz-	.	4e-X\	grze-	.	4f\	od-	.	4cc\	ma	.	.	.	.	.	4f/	.	4cc\	.
=30	=30	=30	=30	=30	=30	=30	=30	=30	=30	=30	=30	=30	=30	=30	=30	=30	=30	=30	=30	=30	=30	=30	=30	=30
!	!	!	!LO:LB:g=original	!	!LO:LB:g=original	!	!	!	!	!	!	!	!	!	!	!	!	!	!	!	!	!	!	!
2BB-/	-_	.	2BB-/	.	2BB-/	-ni-	.	(>4d-X\	-szni-	.	2f\	-py-	.	2.ddn\	Du-	.	1r	.	1r	.	[<1f	.	2.dd-X^<\	.
.	.	.	.	.	.	.	.	4c\	.	.	.	.	.	.	.	.	.	.	.	.	.	.	.	.
2C/	x	.	2C/	.	2C/	-ka	.	4B-\)	.	.	4f\	-chasz	.	.	.	.	.	.	.	.	.	.	.	.
.	6 4	.	.	.	.	.	.	4A-X\	-ka	.	4f\	grze-	.	4cc\	-ſza	.	.	.	.	.	.	.	4cc\	.
=31	=31	=31	=31	=31	=31	=31	=31	=31	=31	=31	=31	=31	=31	=31	=31	=31	=31	=31	=31	=31	=31	=31	=31	=31
!LO:LB:g=original	!	!	!	!	!	!	!	!	!	!	!	!	!	!	!	!	!	!	!	!	!	!	!	!
4r	4n_ 3-_	.	4r	.	4r	.	.	2A-X\	za	.	(4f\	-szni-	.	4bn\	ſmu-	.	1r	.	1r	.	4f/]	.	2bX\	.
4F\	.	.	4F\	.	4F\	za	.	.	.	.	4dn\)	.	.	4b\	-tkiem	.	.	.	.	.	4d/	.	.	.
4E-\	6	.	4E-\	.	4E-\	coż	.	4G/	cóż	.	4e-\	-ka	.	4cc\	u-	.	.	.	.	.	4e-/	.	4cc\	.
4D\	6n 3	.	4D\	.	4D\	ma	.	4G/	ma	.	4f\	grze-	.	4dd\	-drę-	.	.	.	.	.	4f/	.	4dd\	.
=32	=32	=32	=32	=32	=32	=32	=32	=32	=32	=32	=32	=32	=32	=32	=32	=32	=32	=32	=32	=32	=32	=32	=32	=32
4C\	-_	.	4C\	.	2.C/	Du-	.	(<4G/	du-	.	2.g\	-szni-	.	2ee-X\	-czo-	.	1r	.	1r	.	1g	.	2ee-^<\	.
8E-\L	.	.	8E-\L	.	.	.	.	4A/)	.	.	.	.	.	.	.	.	.	.	.	.	.	.	.	.
8G\J	.	.	8G\J	.	.	.	.	.	.	.	.	.	.	.	.	.	.	.	.	.	.	.	.	.
4c\	x	.	4c\	.	.	.	.	2B-\	-ſza	.	.	.	.	4dd\	-na	.	.	.	.	.	.	.	2ddn\	.
4B-\	6_	.	4B-\	.	4BB-/	-ſza	.	.	.	.	4g\	-ka	.	4dd\	gdy	.	.	.	.	.	.	.	.	.
!	!	!	!	!	!	!	!	!	!	!	!LO:LB:g=original	!	!	!	!	!	!	!	!	!	!	!	!	!
=33	=33	=33	=33	=33	=33	=33	=33	=33	=33	=33	=33	=33	=33	=33	=33	=33	=33	=33	=33	=33	=33	=33	=33	=33
4A\	.	.	4A\	.	4AA/	smu-	.	4B-\	ſmu-	.	4r	.	.	(>2cc#X\	mnie	.	1r	.	1r	.	4r	.	2cc#X\	.
4G\	6n 4| 3	.	4G\	.	4G\	-tkiem	.	4B-\	-tkiem	.	4en\	za	.	.	.	.	.	.	.	.	4b-\	.	.	.
4F\	6	.	4F\	.	4F\	u-	.	4A\	u-	.	4f\	coż	.	4dd\)	.	.	.	.	.	.	4a\	.	4dd\	.
4En\	6| 3	.	4En\	.	4En\	-drę-	.	4G\	-drę-	.	4g\	ma	.	4ee\	prze-	.	.	.	.	.	4g\	.	4eeX\	.
=34	=34	=34	=34	=34	=34	=34	=34	=34	=34	=34	=34	=34	=34	=34	=34	=34	=34	=34	=34	=34	=34	=34	=34	=34
!	!	!	!	!	!	!	!	!LO:LB:g=original	!	!	!	!	!	!LO:LB:g=original	!	!	!	!	!	!	!	!	!	!
2.D\	8_ 3_	.	2.D\	.	2D\	-czo-	.	2F/	-czo-	.	2a\	du-	.	2ff\	-ci-	.	1r	.	1r	.	2.f/	.	2ff^<\	.
.	.	.	.	.	2F\	.	.	(<4G/	-na	.	2f\	-sza	.	4dd\	-wnik	.	.	.	.	.	.	.	4dd\	.
8En\L	.	.	8En\L	.	.	.	.	4A/)	.	.	.	.	.	4a\	do-	.	.	.	.	.	4a/	.	4a\	.
8F\J	.	.	8F\J	.	.	.	.	.	.	.	.	.	.	.	.	.	.	.	.	.	.	.	.	.
=35	=35	=35	=35	=35	=35	=35	=35	=35	=35	=35	=35	=35	=35	=35	=35	=35	=35	=35	=35	=35	=35	=35	=35	=35
2G\	-	.	2G\	.	2G\	-na	.	4r	.	.	4d\	ſmu-	.	2b-\	-ty-	.	1r	.	1r	.	[<1d	.	2b-\	.
.	.	.	.	.	.	.	.	4G/	gdy	.	4d\	-tkiem	.	.	.	.	.	.	.	.	.	.	.	.
2B-\	.	.	2B-\	.	2r	.	.	4A/	mnie	.	4d\	u-	.	2g\	-ka	.	.	.	.	.	.	.	2g\	.
.	.	.	.	.	.	.	.	4B-/	prze-	.	4d\	-drę-	.	.	.	.	.	.	.	.	.	.	.	.
=36	=36	=36	=36	=36	=36	=36	=36	=36	=36	=36	=36	=36	=36	=36	=36	=36	=36	=36	=36	=36	=36	=36	=36	=36
!	!	!	!	!	!LO:LB:g=original	!	!	!	!	!	!	!	!	!	!	!	!	!	!	!	!	!	!	!
4r	6_	.	4r	.	4r	.	.	2B-\	-ciw-	.	2d\	-czo-	.	4r	.	.	1r	.	1r	.	2d/]	.	4r	.
4B-\	.	.	4B-\	.	4B-\	gdy	.	.	.	.	.	.	.	4g\	Gdy	.	.	.	.	.	.	.	4g\	.
4A\	6| 3	.	4A\	.	4A\	mnie	.	4c\	-nik	.	4d\	-na	.	4a\	mnie	.	.	.	.	.	[<2d/	.	4a\	.
4G\	-	.	4G\	.	4G\	prze-	.	4d\	do-	.	4d\	gdy	.	4b-\	prze-	.	.	.	.	.	.	.	4b-\	.
=37	=37	=37	=37	=37	=37	=37	=37	=37	=37	=37	=37	=37	=37	=37	=37	=37	=37	=37	=37	=37	=37	=37	=37	=37
2F\	6	.	2F\	.	2F\	-ciw-	.	2d\	-ty-	.	4.d\	mnie	.	2a\	-ciw-	.	1r	.	1r	.	2d/]	.	2a\	.
.	.	.	.	.	.	.	.	.	.	.	8d\	prze-	.	.	.	.	.	.	.	.	.	.	.	.
!	!	!	!	!	!	!	!	!	!	!	!LO:LB:g=original	!	!	!	!	!	!	!	!	!	!	!	!	!
4G\	6n	.	4G\	.	4G\	-nik	.	4B-\	-ka	.	4en\	-ciw-	.	4g\	-nik	.	.	.	.	.	2g/	.	2b-\	.
4G\	.	.	4GG/	.	4G\	do-	.	4B-\	do-	.	8e\	-nik	.	4g\	do-	.	.	.	.	.	.	.	.	.
.	.	.	.	.	.	.	.	.	.	.	8e\	do-	.	.	.	.	.	.	.	.	.	.	.	.
=38	=38	=38	=38	=38	=38	=38	=38	=38	=38	=38	=38	=38	=38	=38	=38	=38	=38	=38	=38	=38	=38	=38	=38	=38
!	!	!	!LO:LB:g=original	!	!	!	!	!	!	!	!	!	!	!	!	!	!	!	!	!	!	!	!LO:LB:g=original	!
2A\	6_ 4	.	2AA/	.	2A\	-ty-	.	(>2A\	-ty-	.	2d\	-ty-	.	2.f/	-ty-	.	1r	.	1r	.	2.f/	.	1a	.
2AA/	5 #_	.	2A\	.	2AA/	.	.	2G/)	.	.	2c#X\	.	.	.	.	.	.	.	.	.	.	.	.	.
.	.	.	.	.	.	.	.	.	.	.	.	.	.	4en/	.	.	.	.	.	.	4eX/	.	.	.
=39	=39	=39	=39	=39	=39	=39	=39	=39	=39	=39	=39	=39	=39	=39	=39	=39	=39	=39	=39	=39	=39	=39	=39	=39
!LO:LB:g=original	!	!	!	!	!	!	!	!	!	!	!	!	!	!	!	!	!	!	!	!	!	!	!	!
2D;\	n	.	2D;\	.	2D;\	-ka	.	2F;/	-ka	.	2d;\	-ka	.	2d;/	-ka	.	1r;	.	1r;	.	2d;/	.	2a;\	.
2r;	.	.	2r;	.	2r;	.	.	2r;	.	.	2r;	.	.	2r;	.	.	.	.	.	.	2r;	.	2r;	.
=40	=40	=40	=40	=40	=40	=40	=40	=40	=40	=40	=40	=40	=40	=40	=40	=40	=40	=40	=40	=40	=40	=40	=40	=40
!	!	!	!	!	!	!	!	!LO:LB:g=original	!	!	!	!	!	!LO:LB:g=original	!	!	!	!	!	!	!	!	!	!
!	!	!	!	!	!	!	!	!	!	!	!	!	!	!LO:HP:t=po.	!	!LO:DY:a	!LO:TX:a:t=Problem&colon; 00r 00r 00r 0r 1r 15	!	!LO:TX:a:t=Problem&colon; 00r 00r 00r 0r 1r 15	!	!LO:TX:a:t=Problem&colon; 00r 00r 00r 0r 1r 15	!	!LO:TX:a:t=Problem&colon; 00r 00r 00r 0r 1r 15	!
2BB-/	3	.	2BB-/	.	4BB-/	Roz-	.	4B-\	Roz-	.	4d\	Roz-	.	4f/	Roz-	p	1r	.	1r	.	1r	.	1r	.
.	.	.	.	.	2BB-/	-prósſ	.	2B-\	-prósz	.	(4d\	-prósz	.	(4<f/	-prósſ	.	.	.	.	.	.	.	.	.
2BB-/	6 4	.	2BB-/	.	.	.	.	.	.	.	4e-\)	.	.	4g/)	.	.	.	.	.	.	.	.	.	.
.	7 2	.	.	.	4BB-/	twym	.	4B-\	twym	.	4c\	twym	.	4a/	twym	.	.	.	.	.	.	.	.	.
=41	=41	=41	=41	=41	=41	=41	=41	=41	=41	=41	=41	=41	=41	=41	=41	=41	=41	=41	=41	=41	=41	=41	=41	=41
2BB-/	8 3	.	2BB-/	.	2BB-/	swia-	.	2B-\	swia-	.	2d\	swia-	.	2b-\	swia-	.	1r	.	1r	.	1r	.	1r	.
2BB-/	.	.	2BB-/	.	2BB-/	-tłem	.	2B-\	-tlem	.	2d\	-tłem	.	2b-\	-tłem,	.	.	.	.	.	.	.	.	.
=42	=42	=42	=42	=42	=42	=42	=42	=42	=42	=42	=42	=42	=42	=42	=42	=42	=42	=42	=42	=42	=42	=42	=42	=42
!	!	!	!	!	!LO:LB:g=original	!	!	!	!	!	!LO:LB:g=original	!	!	!	!	!	!	!	!	!	!	!	!	!
2BB-/	.	.	2BB-/	.	4BB-/	blę-	.	4B-\	blę-	.	4d\	błę-	.	4f/	błę-	.	1r	.	1r	.	1r	.	1r	.
.	.	.	.	.	4BB-/	-dów	.	4B-\	-dów	.	4f\	-dów	.	4dd\	-dow	.	.	.	.	.	.	.	.	.
4F\	7	.	4F\	.	4F\	mo-	.	4A\	mo-	.	4e-\	mo-	.	4cc\	mo-	.	.	.	.	.	.	.	.	.
4G\	6	.	4G\	.	4G\	-ich	.	4B-\	-ich	.	4d\	-ich	.	4b-\	-ich	.	.	.	.	.	.	.	.	.
=43	=43	=43	=43	=43	=43	=43	=43	=43	=43	=43	=43	=43	=43	=43	=43	=43	=43	=43	=43	=43	=43	=43	=43	=43
.	.	.	.	.	.	.	.	.	.	.	.	.	.	4qqa/	.	.	.	.	.	.	.	.	.	.
2E-\	4	.	2E-\	.	2E-\	chmu-	.	2B-\	chmu-	.	2e-\	chmu-	.	2g\	chmu-	.	1r	.	1r	.	1r	.	1r	.
.	3	.	.	.	.	.	.	.	.	.	.	.	.	.	.	.	.	.	.	.	.	.	.	.
2BB-/	.	.	2BB-/	.	2BB-/	-rę	.	2B-\	-rę	.	2d\	-rę	.	2f\	-rę	.	.	.	.	.	.	.	.	.
=44	=44	=44	=44	=44	=44	=44	=44	=44	=44	=44	=44	=44	=44	=44	=44	=44	=44	=44	=44	=44	=44	=44	=44	=44
2BB-/	3	.	2BB-/	.	2BB-/	o-	.	2B-\	o-	.	2d\	o-	.	2f\	o-	.	1r	.	1r	.	1r	.	1r	.
2BB-/	6 4	.	2BB-/	.	4BB-/	-każ	.	4B-\	-każ	.	4e-\	-każ	.	4g\	-każ	.	.	.	.	.	.	.	.	.
.	7 2	.	.	.	4BB-/	twey	.	4c\	twey	.	4e-\	twey	.	4a\	twey	.	.	.	.	.	.	.	.	.
=45	=45	=45	=45	=45	=45	=45	=45	=45	=45	=45	=45	=45	=45	=45	=45	=45	=45	=45	=45	=45	=45	=45	=45	=45
2BB-/	3	.	2BB-/	.	2BB-/	pra-	.	2d\	pra-	.	2f\	pra-	.	2b-\	praw-	.	1r	.	1r	.	1r	.	1r	.
!	!	!	!	!	!	!	!	!	!	!	!	!	!	!LO:LB:g=original	!	!	!	!	!	!	!	!	!	!
2C/	7 3_	.	2C/	.	4C/	-wdy	.	4c\	-wdy	.	4e-\	-wdy	.	4b-\	-dy	.	.	.	.	.	.	.	.	.
.	6	.	.	.	4C/	po-	.	4c\	po-	.	4e-\	po-	.	4a\	po-	.	.	.	.	.	.	.	.	.
=46	=46	=46	=46	=46	=46	=46	=46	=46	=46	=46	=46	=46	=46	=46	=46	=46	=46	=46	=46	=46	=46	=46	=46	=46
!	!	!	!	!	!	!	!	!LO:LB:g=original	!	!	!	!	!	!	!	!	!	!	!	!	!	!	!	!
2D\	6 4	.	2D\	.	1D	-tę-	.	2B-\	-tę-	.	1d	-tę-	.	(2g\	-tę-	.	1r	.	1r	.	1r	.	1r	.
2D\	5 #	.	2D\	.	.	.	.	2A\	.	.	.	.	.	2f#X\)	.	.	.	.	.	.	.	.	.	.
.	.	.	.	.	.	.	.	.	.	.	.	.	.	.	.	.	.	.	.	.	.	.	.	.
=47	=47	=47	=47	=47	=47	=47	=47	=47	=47	=47	=47	=47	=47	=47	=47	=47	=47	=47	=47	=47	=47	=47	=47	=47
!LO:LB:g=original	!	!	!LO:LB:g=original	!	!	!	!	!	!	!	!	!	!	!	!	!	!	!	!	!	!	!	!	!
4GG/	-_	.	4GG/	.	2GG/	-gę	.	2B-\	-gę	.	2d\	-gę	.	2g\	-gę	.	1r	.	1r	.	1r	.	1r	.
8BB-/L	.	.	8BB-/L	.	.	.	.	.	.	.	.	.	.	.	.	.	.	.	.	.	.	.	.	.
8D/J	.	.	8D/J	.	.	.	.	.	.	.	.	.	.	.	.	.	.	.	.	.	.	.	.	.
4G\	x	.	4G\	.	2r	.	.	2r	.	.	2r	.	.	2r	.	.	.	.	.	.	.	.	.	.
4F\	.	.	4F\	.	.	.	.	.	.	.	.	.	.	.	.	.	.	.	.	.	.	.	.	.
=48	=48	=48	=48	=48	=48	=48	=48	=48	=48	=48	=48	=48	=48	=48	=48	=48	=48	=48	=48	=48	=48	=48	=48	=48
!	!	!	!	!	!LO:LB:g=original	!	!	!	!	!	!LO:LB:g=original	!	!	!	!	!	!	!	!	!	!	!	!	!
2E-\	.	.	2E-\	.	4E-\	za	.	4B-\	za	.	4e-\	za	.	4g\	Za	.	1r	.	1r	.	1r	.	1r	.
.	.	.	.	.	2E-\	nie-	.	2B-\	nie-	.	2e-\	nie-	.	2g\	nie-	.	.	.	.	.	.	.	.	.
2E-\	.	.	2E-\	.	.	.	.	.	.	.	.	.	.	.	.	.	.	.	.	.	.	.	.	.
.	.	.	.	.	4E-\	-mi	.	4B-\	-mi	.	4e-\	-mi	.	4g\	-mi	.	.	.	.	.	.	.	.	.
=49	=49	=49	=49	=49	=49	=49	=49	=49	=49	=49	=49	=49	=49	=49	=49	=49	=49	=49	=49	=49	=49	=49	=49	=49
!LO:TX:a:t=problem:fermata nad b.c.	!	!	!	!	!	!	!	!	!	!	!	!	!	!	!	!	!	!	!	!	!	!	!	!
2D\	7- 5-	.	2D\	.	2D\	wſtą-	.	2c-X\	wſtą-	.	2f\	wſtą-	.	2a-X\	wſtą-	.	1r	.	1r	.	1r	.	1r	.
2E-\	8 3	.	2E-\	.	4E-\	-pie-	.	4B-\	-pie-	.	4e-\	-pie-	.	4g\	-pie-	.	.	.	.	.	.	.	.	.
.	.	.	.	.	4E-\	-na	.	4B-\	-na	.	4e-\	-na	.	4g\	-na	.	.	.	.	.	.	.	.	.
=50	=50	=50	=50	=50	=50	=50	=50	=50	=50	=50	=50	=50	=50	=50	=50	=50	=50	=50	=50	=50	=50	=50	=50	=50
4D-X\	2	.	4D-X/	.	4E-\	wy-	.	4d-X\	wy-	.	4e-\	wy-	.	4g\	wy-	.	1r	.	1r	.	1r	.	1r	.
4C\	6	.	4C/	.	2D\	-nio-	.	(>4cn\	-nio-	.	2e-\	-nio-	.	(>4a-X\	-nio-	.	.	.	.	.	.	.	.	.
4BB-/	6 4	.	4BB-/	.	.	.	.	4B-\)	.	.	.	.	.	4b-\)	.	.	.	.	.	.	.	.	.	.
4AA-X/	8 3	.	4AA-X/	.	4E-\	-słą	.	4A-X\	-słą	.	4e-\	-słą	.	4cc\	-słą	.	.	.	.	.	.	.	.	.
=51	=51	=51	=51	=51	=51	=51	=51	=51	=51	=51	=51	=51	=51	=51	=51	=51	=51	=51	=51	=51	=51	=51	=51	=51
!	!	!	!	!	!	!	!	!	!	!	!	!	!	!LO:LB:g=original	!	!	!	!	!	!	!	!	!	!
4GG/	6 5-_	.	4GG/	.	2E-\	gó-	.	2G/	gó-	.	2e-\	gó-	.	2dd-X\	gó-	.	1r	.	1r	.	1r	.	1r	.
8BB-/L	.	.	8BB-/L	.	.	.	.	.	.	.	.	.	.	.	.	.	.	.	.	.	.	.	.	.
8E-/J	.	.	8E-/J	.	.	.	.	.	.	.	.	.	.	.	.	.	.	.	.	.	.	.	.	.
4G\	.	.	4G\	.	2E-\	-rę	.	2G/	-rę	.	2e-\	-rę	.	2b-\	-rę	.	.	.	.	.	.	.	.	.
4GG/	6	.	4GG/	.	.	.	.	.	.	.	.	.	.	.	.	.	.	.	.	.	.	.	.	.
=52	=52	=52	=52	=52	=52	=52	=52	=52	=52	=52	=52	=52	=52	=52	=52	=52	=52	=52	=52	=52	=52	=52	=52	=52
4AA-X/	8_ 3_	.	4AA-X/	.	4AA-X/	i	.	4A-X\	i	.	4e-\	i	.	4cc\	i	.	1r	.	1r	.	1r	.	1r	.
4BB-/	.	.	4BB-/	.	(<4BB-/	twych	.	2A-\	twych	.	2e-\	Twych	.	2cc\	Twych	.	.	.	.	.	.	.	.	.
4C/	.	.	4C/	.	4C/)	.	.	.	.	.	.	.	.	.	.	.	.	.	.	.	.	.	.	.
4D-X/	.	.	4D-X/	.	4D-X\	przy-	.	4A-\	przy-	.	4f\	przy-	.	4cc\	przy-	.	.	.	.	.	.	.	.	.
=53	=53	=53	=53	=53	=53	=53	=53	=53	=53	=53	=53	=53	=53	=53	=53	=53	=53	=53	=53	=53	=53	=53	=53	=53
!	!	!	!	!	!LO:LB:g=original	!	!	!	!	!	!LO:LB:g=original	!	!	!	!	!	!	!	!	!	!	!	!	!
2E-T\	7-_ 6	.	(>2E-T\	.	2E-\	-by-	.	2G\	-by-	.	2d-X\	-by-	.	(>4cc\	-by-	.	1r	.	1r	.	1r	.	1r	.
.	_ 5	.	.	.	.	.	.	.	.	.	.	.	.	4b-\)	.	.	.	.	.	.	.	.	.	.
4F\	-	.	4F\)	.	4F\	-tków	.	4A-X\	-tków	.	4c\	-tków	.	4a-X\	-tków	.	.	.	.	.	.	.	.	.
4BB-/	6	.	4BB-/	.	4BB-/	do-	.	4B-\	do-	.	4d-\	do-	.	4g\	do-	.	.	.	.	.	.	.	.	.
=54	=54	=54	=54	=54	=54	=54	=54	=54	=54	=54	=54	=54	=54	=54	=54	=54	=54	=54	=54	=54	=54	=54	=54	=54
!LO:LB:g=original	!	!	!	!	!	!	!	!	!	!	!	!	!	!	!	!	!	!	!	!	!	!	!	!
2C/	6 4	.	2C/	.	1C	-sie-	.	2A-X\	-się-	.	1c	-się-	.	(<2f/	-się-	.	1r	.	1r	.	1r	.	1r	.
2CC/	n	.	2C/	.	.	.	.	2G\	.	.	.	.	.	2en/)	.	.	.	.	.	.	.	.	.	.
=55	=55	=55	=55	=55	=55	=55	=55	=55	=55	=55	=55	=55	=55	=55	=55	=55	=55	=55	=55	=55	=55	=55	=55	=55
!	!	!	!LO:LB:g=original	!	!	!	!	!	!	!	!	!	!	!	!	!	!	!	!	!	!	!	!	!
2FF;/	n	.	2FF;/	.	2FF;/	-gnę	.	2An;\	-gnę	.	2c;\	-gnę	.	2f;/	-gnę	.	1r;	.	1r;	.	1r;	.	1r;	.
2r	.	.	2r	.	2r;	.	.	2r;	.	.	2r;	.	.	2r;	.	.	.	.	.	.	.	.	.	.
=56	=56	=56	=56	=56	=56	=56	=56	=56	=56	=56	=56	=56	=56	=56	=56	=56	=56	=56	=56	=56	=56	=56	=56	=56
!LO:TX:a:t=all 8va	!	!	!	!	!	!	!	!	!	!	!	!	!	!	!	!	!LO:TX:a:t=Problem&colon; 00r 00r 00r 0r 14	!	!LO:TX:a:t=Problem&colon; 00r 00r 00r 0r 14	!	!LO:HP:t=po	!	!LO:HP:t=po	!
2F#X\	.	.	2FF#X/	.	2FF#X/	Bo-	.	2F#X/	Bo-	.	2f#X\	Bo-	.	2f#X/	Bo-	.	1r	.	1r	.	(1g-X	p	[<1g-X	p
2F#\	.	.	2FF#/	.	4FF#/	-że	.	4F#/	-że	.	4f#\	-że	.	4f#/	-że	.	.	.	.	.	.	.	.	.
.	.	.	.	.	4FF#/	do	.	4F#/	do	.	4f#\	do	.	4f#/	do	.	.	.	.	.	.	.	.	.
=57	=57	=57	=57	=57	=57	=57	=57	=57	=57	=57	=57	=57	=57	=57	=57	=57	=57	=57	=57	=57	=57	=57	=57	=57
!	!	!	!	!	!	!	!	!	!	!	!	!	!	!LO:LB:g=original	!	!	!	!	!	!	!	!	!	!
2F#X\	.	.	2FF#X/	.	2FF#X/	twe-	.	2F#X/	twe-	.	2f#X\	twe-	.	2f#X/	Twe-	.	1r	.	1r	.	1g)	.	1g-X]	.
2F#\	.	.	2FF#/	.	4FF#/	-go	.	4F#/	-go	.	4f#\	-go	.	4f#/	-go	.	.	.	.	.	.	.	.	.
.	.	.	.	.	4FF#/	oł-	.	4F#/	oł-	.	4f#\	oł-	.	4f#/	oł-	.	.	.	.	.	.	.	.	.
=58	=58	=58	=58	=58	=58	=58	=58	=58	=58	=58	=58	=58	=58	=58	=58	=58	=58	=58	=58	=58	=58	=58	=58	=58
!	!	!	!	!LO:DY:b	!	!	!	!LO:LB:g=original	!	!	!	!	!	!	!	!	!	!	!	!	!	!	!	!
2F#X\	#	.	4FF#X/	<	(>4FF#X/	-ta-	.	(<4F#X/	-ta-	.	2f#X\	-ta-	.	2f#X/	-ta-	.	1r	.	1r	.	2g-X/	.	2g-X/	.
.	.	.	4F\	.	4F\)	.	.	4A#X/)	.	.	.	.	.	.	.	.	.	.	.	.	.	.	.	.
!	!	!	!	!	!	!	!	!	!	!	!LO:LB:g=original	!	!	!	!	!	!	!	!	!	!	!	!	!
4G#X\	6| 4| 3n	.	4G#X\	.	4G#X\	-rza	.	4Bn\	-rza	.	4e#X\	-rza	.	4e#X/	-rza	.	.	.	.	.	4f/	.	4f/	.
4F#\	8 #	.	4F#X\	[[	4F#X\	się	.	4A#\	się	.	4f#X\	się	.	4f#X/	się	.	.	.	.	.	4g-/	.	4g-/	.
=59	=59	=59	=59	=59	=59	=59	=59	=59	=59	=59	=59	=59	=59	=59	=59	=59	=59	=59	=59	=59	=59	=59	=59	=59
!	!	!	!	!	!LO:LB:g=original	!	!	!	!	!	!	!	!	!	!	!	!	!	!	!	!LO:LB:g=original	!	!	!
2.En\	n	.	2.En\	.	2En\	zbli-	.	2Bn\	zbli-	.	2gn\	zbli-	.	2gn\	zbli-	.	1r	.	1r	.	1gn	.	1gn	.
.	.	.	.	.	4E\	-żę	.	4B\	-żę	.	4g\	-żę	.	4g\	-żę	.	.	.	.	.	.	.	.	.
8E\L	.	.	(>8E\L	.	4r	.	.	4r	.	.	4r	.	.	4r	.	.	.	.	.	.	.	.	.	.
8F#X\J	.	.	8F#X\J)	.	.	.	.	.	.	.	.	.	.	.	.	.	.	.	.	.	.	.	.	.
=60	=60	=60	=60	=60	=60	=60	=60	=60	=60	=60	=60	=60	=60	=60	=60	=60	=60	=60	=60	=60	=60	=60	=60	=60
2G\	4	.	2G\	.	2Gn\	Bo-	.	2Bn\	Bo-	.	2g\	Bo-	.	2g\	Bo-	.	1r	.	1r	.	1g	.	1g	<
2GG/	.	.	4GG/	.	4G\	-że	.	4B\	-że	.	4d\	-że	.	4g\	-że	.	.	.	.	.	.	.	.	.
.	.	.	4GG/	.	4G\	do	.	4B\	do	.	4d\	do	.	4g\	do	.	.	.	.	.	.	.	.	.
=61	=61	=61	=61	=61	=61	=61	=61	=61	=61	=61	=61	=61	=61	=61	=61	=61	=61	=61	=61	=61	=61	=61	=61	=61
!LO:LB:g=original	!	!	!	!LO:HP:t=fo	!	!	!	!	!	!	!	!	!	!LO:TX:a:t=crescendo	!	!	!	!	!	!	!LO:TX:b:t=cresc.	!	!	!
2D/	#	.	2D\	f	2D/	twe-	.	2A\	twe-	.	2d\	twe-	.	2f#X\	Twe-	.	1r	.	1r	.	2f#X/	.	2f#X/	.
2GG/	n_	.	2GG/	.	4GG/	-go	.	4Bn\	-go	.	4d\	-go	.	4g\	-go	.	.	.	.	.	2g/	.	2g/	.
.	.	.	.	.	4GG/	oł-	.	4B\	oł-	.	4d\	Oł-	.	4g\	Oł-	.	.	.	.	.	.	.	.	.
=62	=62	=62	=62	=62	=62	=62	=62	=62	=62	=62	=62	=62	=62	=62	=62	=62	=62	=62	=62	=62	=62	=62	=62	=62
4GG/	.	.	4GG/	.	(>4GG/	-ta-	.	2Bn\	-ta-	.	2d\	-ta-	.	2g\	-ta-	.	1r	.	1r	.	2g/	<	2g/	.
4G\	.	.	4G\	.	4G\)	.	.	.	.	.	.	.	.	.	.	.	.	.	.	.	.	.	.	.
4A\	6| 3	.	4A\	.	4A\	-rza	.	4c\	-rza	.	4d\	-rza	.	4f#X\	-rza	.	.	.	.	.	4f#X/	.	4f#X/	.
4G\	8 n	.	4G\	.	4G\	się	.	4B\	się	.	4d\	się	.	4g\	się	.	.	.	.	.	4g/	[[	4g/	.
=63	=63	=63	=63	=63	=63	=63	=63	=63	=63	=63	=63	=63	=63	=63	=63	=63	=63	=63	=63	=63	=63	=63	=63	=63
!	!	!	!LO:LB:g=original	!	!	!	!	!LO:LB:g=original	!	!	!	!	!	!LO:LB:g=original	!	!	!	!	!	!	!	!	!	!
2Fn\	-	.	2Fn\	.	2Fn\	zbli-	.	2c\	zbli-	.	2fn\	zbli-	.	2a-X\	zbli-	.	1r	.	1r	.	1a-X	.	1a-X	.
4FF/	.	.	4FF/	.	4F\	-żę	.	2c\	-żę	.	4f\	-żę	.	2a-\	-żę	.	.	.	.	.	.	.	.	.
4r	.	.	4r	.	4r	.	.	.	.	.	4r	.	.	.	.	.	.	.	.	.	.	.	.	.
*	*	*	*	*	*	*	*	*	*	*	*	*	*	*	*	*	*	*	*	*	*	*	*	*
=64	=64	=64	=64	=64	=64	=64	=64	=64	=64	=64	=64	=64	=64	=64	=64	=64	=64	=64	=64	=64	=64	=64	=64	=64
!	!	!	!	!	!LO:LB:g=original	!	!	!	!	!	!LO:PB:g=original	!	!	!	!	!	!	!	!	!	!	!	!	!
4r	.	.	1r	.	1r	.	.	1r	.	.	1r	.	.	4r	.	.	1r	.	1r	.	1r	.	4r	.
!	!	!	!	!	!	!	!	!	!	!	!	!	!	!LO:HP:t=fo	!	!LO:DY:a	!	!	!	!	!	!	!	!
*clefC1	*	*	*	*	*	*	*	*	*	*	*	*	*	*	*	*	*	*	*	*	*	*	*	*
4cc\	.	.	.	.	.	.	.	.	.	.	.	.	.	4cc\	po-	f	.	.	.	.	.	.	4cc\	.
4.a-X\	.	.	.	.	.	.	.	.	.	.	.	.	.	4.a-X\	-cie-	.	.	.	.	.	.	.	4.a-X\	.
8f\	.	.	.	.	.	.	.	.	.	.	.	.	.	8f\	-cho	.	.	.	.	.	.	.	8f/	.
=65	=65	=65	=65	=65	=65	=65	=65	=65	=65	=65	=65	=65	=65	=65	=65	=65	=65	=65	=65	=65	=65	=65	=65	=65
(<2e-/	.	.	2r	.	2r	.	.	4r	.	.	2r	.	.	2e-/	mo-	.	1r	.	1r	.	2r	.	2e-/	.
.	.	.	.	.	.	.	.	4c\	po-	.	.	.	.	.	.	.	.	.	.	.	.	.	.	.
4d/)	.	.	4r	.	4r	.	.	4.A-X\	-cie-	.	4r	.	.	4d/	-iey	.	.	.	.	.	4r	.	4d/	.
*clefF4	*	*	*	*	*	*	*	*	*	*	*	*	*	*	*	*	*	*	*	*	*	*	*	*
4BB-/	8 3	.	4BB-/	.	4BB-/	po-	.	.	.	.	4d\	po-	.	4f/	mło-	.	.	.	.	.	4d/	.	4f/	.
.	.	.	.	.	.	.	.	8F/	-cho	.	.	.	.	.	.	.	.	.	.	.	.	.	.	.
=66	=66	=66	=66	=66	=66	=66	=66	=66	=66	=66	=66	=66	=66	=66	=66	=66	=66	=66	=66	=66	=66	=66	=66	=66
!	!	!	!	!	!	!	!	!	!	!	!	!	!	!	!	!	!	!	!	!	!	!	!LO:LB:g=original	!
4BB-/	8_ 3	.	4BB-/	.	(<4BB-/	-cie-	.	2F/	mo-	.	(>4d\	-cie-	.	2.b-\	-do-	.	1r	.	1r	.	(<1d	.	2.b-\	.
4C/	_ 3	.	4C/	.	4C/)	.	.	.	.	.	4e-\)	.	.	.	.	.	.	.	.	.	.	.	.	.
4D/	_ 3	.	4D/	.	4D/	-cho	.	4F/	-iey	.	4f\	-cho	.	.	.	.	.	.	.	.	.	.	.	.
4BB-/	_ 3	.	4BB-/	.	4BB-/	po-	.	4F/	mło-	.	4d\	po-	.	4a-X\	.	.	.	.	.	.	.	.	4a-X\	.
=67	=67	=67	=67	=67	=67	=67	=67	=67	=67	=67	=67	=67	=67	=67	=67	=67	=67	=67	=67	=67	=67	=67	=67	=67
!LO:LB:g=original	!	!	!	!	!	!	!	!	!	!	!	!	!	!	!	!	!	!	!	!	!	!	!	!
8E-\L	5_	.	8E-\L	.	2E-\	-cie-	.	2G/	-do-	.	(>4e-\	-cie-	.	4g\	-śći.	.	1r	.	1r	.	4e-/)	.	2g\	.
8D\	.	.	8D\	.	.	.	.	.	.	.	.	.	.	.	.	.	.	.	.	.	.	.	.	.
8E-\	.	.	8E-\	.	.	.	.	.	.	.	4b-\)	.	.	4r	.	.	.	.	.	.	4b-/	.	.	.
8F\J	.	.	8F\J	.	.	.	.	.	.	.	.	.	.	.	.	.	.	.	.	.	.	.	.	.
4G\	x	.	4G\	.	4E-\	-cho.	.	4B-\	-sci	.	4g\	-cho	.	2r	.	.	.	.	.	.	4g/	.	2r	.
4r	.	.	4r	.	4r	.	.	4e-\	po-	.	4e-\	po-	.	.	.	.	.	.	.	.	4e-/	.	.	.
*clefC1	*	*	*	*	*	*	*	*	*	*	*	*	*	*	*	*	*	*	*	*	*	*	*	*
=68	=68	=68	=68	=68	=68	=68	=68	=68	=68	=68	=68	=68	=68	=68	=68	=68	=68	=68	=68	=68	=68	=68	=68	=68
!	!	!	!	!	!	!	!	!	!	!	!	!	!	!LO:PB:g=original	!	!	!	!	!	!	!	!	!	!
4r	.	.	1r	.	1r	.	.	2.g\	-cie-	.	(>2c\	-cie-	.	4r	.	.	1r	.	1r	.	2c/	.	4r	.
4gg\	.	.	.	.	.	.	.	.	.	.	.	.	.	4gg\	po-	.	.	.	.	.	.	.	4gg\	.
4.ee-\	.	.	.	.	.	.	.	.	.	.	4d\)	.	.	4.ee-\	-cie-	.	.	.	.	.	4d/	.	4.ee-\	.
.	.	.	.	.	.	.	.	4g\	-cho	.	4e-\	-cho	.	.	.	.	.	.	.	.	4e-/	.	.	.
8cc\	.	.	.	.	.	.	.	.	.	.	.	.	.	8cc\	-cho	.	.	.	.	.	.	.	8cc\	.
=69	=69	=69	=69	=69	=69	=69	=69	=69	=69	=69	=69	=69	=69	=69	=69	=69	=69	=69	=69	=69	=69	=69	=69	=69
!	!	!	!	!	!LO:PB:g=original	!	!	!LO:PB:g=original	!	!	!	!	!	!	!	!	!	!	!	!	!	!	!	!
4b-\	.	.	4r	.	4r	.	.	2f\	mo-	.	2f\	mo-	.	2b-\	mo-	.	1r	.	1r	.	2f/	.	2b-\	.
*clefF4	*	*	*	*	*	*	*	*	*	*	*	*	*	*	*	*	*	*	*	*	*	*	*	*
4D/	6	.	4D/	.	4F\	mo-	.	.	.	.	.	.	.	.	.	.	.	.	.	.	.	.	.	.
4C/	6 3	.	4C/	.	4F\	-iey	.	4e-\	-iey	.	4f\	-iey	.	4a\	-iey	.	.	.	.	.	4e-/	.	4a\	.
4BB-/	8 3	.	4BB-/	.	4F\	mło-	.	4d\	mło-	.	4f\	mło-	.	4b-\	mło-	.	.	.	.	.	4d/	.	4b-\	.
=70	=70	=70	=70	=70	=70	=70	=70	=70	=70	=70	=70	=70	=70	=70	=70	=70	=70	=70	=70	=70	=70	=70	=70	=70
!	!	!	!	!	!	!	!	!	!	!	!LO:LB:g=original	!	!	!	!	!	!	!	!	!	!	!	!	!
1FF;	7	.	1FF;	.	1F;	-do-	.	1e-;	-do-	.	1f;	-do-	.	1cc;	-do-	.	1r;	.	1r;	.	1e-;	.	1cc;	.
=71	=71	=71	=71	=71	=71	=71	=71	=71	=71	=71	=71	=71	=71	=71	=71	=71	=71	=71	=71	=71	=71	=71	=71	=71
!	!	!	!LO:LB:g=original	!	!	!	!	!	!	!	!	!	!	!	!	!	!	!	!	!	!	!	!	!
2BB-/	.	.	2BB-/	.	2BB-/	-sci	.	2d\	-sci	.	2f\	-sci	.	2b-\	-ści	.	1r;	.	1r;	.	2d/	.	2b-\	.
2r;	.	.	2r;	.	2r;	.	.	2r;	.	.	2r;	.	.	2r;	.	.	.	.	.	.	2r	.	2r;	.
=72	=72	=72	=72	=72	=72	=72	=72	=72	=72	=72	=72	=72	=72	=72	=72	=72	=72	=72	=72	=72	=72	=72	=72	=72
*M3/4	*	*	*M3/4	*	*M3/4	*	*	*M3/4	*	*	*M3/4	*	*	*M3/4	*	*	*M3/4	*	*M3/4	*	*M3/4	*	*M3/4	*
!	!	!	!LO:PB:g=original	!LO:HP:t=po	!	!	!	!	!	!	!	!	!	!LO:HP:t=po	!	!LO:DY:a	!LO:HP:t=po	!	!LO:HP:t=po	!	!LO:TX:a:t=Problem&colon; 0r 2	!	!LO:TX:a:t=Problem&colon; 0r 2	!
*	*	*	*	*	*	*	*	*	*	*	*	*	*	*	*	*	*2\right	*	*2\right	*	*	*	*	*
8E-\	3_	.	8E-'\	p	8E-\	J	.	8B-\	i	.	8e-\	i	.	8g\	i	p	4G/	p	4e-'\	p	2.r	.	2.r	.
8r	.	.	8r	.	8r	.	.	8r	.	.	8r	.	.	8r	.	.	.	.	.	.	.	.	.	.
8G\	.	.	8G'\	.	8E-\	tam	.	8B-\	tam	.	8e-\	tam	.	8g\	tam	.	4G/	.	4e-'\	.	.	.	.	.
8r	.	.	8r	.	8r	.	.	8r	.	.	8r	.	.	8r	.	.	.	.	.	.	.	.	.	.
8B-\	.	.	8B-'\	.	8E-\	ci	.	8B-\	ci	.	8e-\	ci	.	8g\	ci	.	4G/	.	4e-'\	.	.	.	.	.
8r	x	.	8r	.	8r	.	.	8r	.	.	8r	.	.	8r	.	.	.	.	.	.	.	.	.	.
=73	=73	=73	=73	=73	=73	=73	=73	=73	=73	=73	=73	=73	=73	=73	=73	=73	=73	=73	=73	=73	=73	=73	=73	=73
!LO:LB:g=original	!	!	!	!	!	!	!	!	!	!	!	!	!	!	!	!	!	!	!	!	!	!	!	!
2.E-\	.	.	2.E-\	f	2E-^\	Pa-	.	2G^>/	Pa-	.	2e-^\	Pa-	.	2b-^\	Pa-	.	2.G^</	.	2.e-^<\	.	2.r	.	2.r	.
.	.	.	.	.	4E-\	-nie	.	4B-\	-nie	.	4e-\	-nie	.	4g\	-nie	.	.	.	.	.	.	.	.	.
=74	=74	=74	=74	=74	=74	=74	=74	=74	=74	=74	=74	=74	=74	=74	=74	=74	=74	=74	=74	=74	=74	=74	=74	=74
!	!	!	!	!	!LO:LB:g=original	!	!	!	!	!	!	!	!	!LO:LB:g=original	!	!	!	!	!	!	!LO:LB:g=original	!	!LO:HP:t=po	!
8G\	6	.	8G'\	.	8G\	za-	.	8B-\	za-	.	8e-\	za-	.	8e-/	za-	.	4G/	.	4e-\	.	4b-\	p	4ee-\	p
8r	4 3	.	8r	.	8G\	-nu-	.	8B-\	-nu-	.	8e-\	-nu-	.	8e-/	-nu-	.	.	.	.	.	.	.	.	.
8F\	.	.	8F'\	.	4F\	-cę	.	4B-\	-cę	.	4d\	-cę	.	4f/	-cę	.	4B-/	.	4f\	.	4dd\	.	4ff\	.
8r	.	.	8r	.	.	.	.	.	.	.	.	.	.	.	.	.	.	.	.	.	.	.	.	.
8E-\	.	.	8E-'\	.	4E-\	na	.	4B-\	na	.	4e-\	na	.	4g/	na	.	4e-\	.	4g\	.	4ee-\	.	4gg\	.
8r	.	.	8r	.	.	.	.	.	.	.	.	.	.	.	.	.	.	.	.	.	.	.	.	.
=75	=75	=75	=75	=75	=75	=75	=75	=75	=75	=75	=75	=75	=75	=75	=75	=75	=75	=75	=75	=75	=75	=75	=75	=75
!	!	!	!	!LO:VY:b	!	!	!	!LO:LB:g=original	!	!	!LO:LB:g=original	!	!	!	!	!	!	!	!	!	!	!	!	!
*	*	*	*	*	*	*	*	*	*	*	*	*	*	*	*	*	*	*	*	*	*2\right	*	*	*
2.F\	-	.	2.F\	>]	2F\	li-	.	2A-X\	li-	.	2c^\	li-	.	2a-X\	li-	.	2f\	.	2a\	.	2.cc^<\	.	2aa-X^<\	.
.	.	.	.	.	4F\	-rze	.	4A-\	-rze	.	4c\	-rze	.	4f/	-rze,	.	4r	.	4r	.	.	.	4ff\	.
=76	=76	=76	=76	=76	=76	=76	=76	=76	=76	=76	=76	=76	=76	=76	=76	=76	=76	=76	=76	=76	=76	=76	=76	=76
!	!	!	!	!	!	!	!	!	!	!	!	!	!	!	!	!	!LO:LB:g=original	!	!LO:LB:g=original	!	!	!	!	!
8BB-/	.	.	8BB-/	.	8BB-/	pieśn	.	8B-\	piesn	.	8d\	piesń	.	8f/	pieśń	.	4B-/	.	4f\	.	2.r	.	2.r	.
8r	.	.	8r	.	8r	.	.	8r	.	.	8r	.	.	8r	.	.	.	.	.	.	.	.	.	.
8D/	.	.	8D/	.	8BB-/	go-	.	8B-\	go-	.	8d\	go-	.	8f/	go-	.	4B-/	.	4f\	.	.	.	.	.
8r	.	.	8r	.	8r	.	.	8r	.	.	8r	.	.	8r	.	.	.	.	.	.	.	.	.	.
8BB-/	.	.	8BB-/	.	8BB-/	-dną	.	8B-\	-dną	.	8d\	-dną	.	8f/	-dną,	.	4B-/	.	4f\	.	.	.	.	.
8r	.	.	8r	.	8r	.	.	8r	.	.	8r	.	.	8r	.	.	.	.	.	.	.	.	.	.
=77	=77	=77	=77	=77	=77	=77	=77	=77	=77	=77	=77	=77	=77	=77	=77	=77	=77	=77	=77	=77	=77	=77	=77	=77
8E-\L	.	.	8E-\L	.	4E-\	two-	.	4B-\	two-	.	4e-\	two-	.	4g\	two-	.	2.e-\	.	2.g\	.	4r	.	4r	.
8F\	.	.	8F\	.	.	.	.	.	.	.	.	.	.	.	.	.	.	.	.	.	.	.	.	.
8E-\	.	.	8E-\	.	4E-\	-iey	.	4c\	-iey	.	4e-\	-iey	.	4g\	-iey	.	.	.	.	.	4r	.	4r	.
8D\J	.	.	8D\J	.	.	.	.	.	.	.	.	.	.	.	.	.	.	.	.	.	.	.	.	.
4C/	.	.	4C\	.	4C/	wiel-	.	4e-\	wiel-	.	4g\	wiel-	.	4cc\	wiel-	.	.	.	.	.	4cc\	.	4ee-\	.
=78	=78	=78	=78	=78	=78	=78	=78	=78	=78	=78	=78	=78	=78	=78	=78	=78	=78	=78	=78	=78	=78	=78	=78	=78
!	!	!	!	!	!	!	!	!	!	!	!	!	!	!	!	!	!	!	!	!	!LO:TX:a:t=problem:niewyraźne rozpoczęcie łuku	!	!	!
2F\	6 4_	.	2F\	.	2.F\	-ko-	.	(>4d\	-ko-	.	2.f\	-ko-	.	2b-\	-ko-	.	2.f\	.	[<2.f\	.	(2b-\	.	2dd\	.
.	5_ _	.	.	.	.	.	.	2c\)	.	.	.	.	.	.	.	.	.	.	.	.	.	.	.	.
4FF/	_ 3	.	4FF/	.	.	.	.	.	.	.	.	.	.	4a\	.	.	.	.	.	.	4a\	.	4cc\	.
=79	=79	=79	=79	=79	=79	=79	=79	=79	=79	=79	=79	=79	=79	=79	=79	=79	=79	=79	=79	=79	=79	=79	=79	=79
4BB-/	8_	.	4BB-/	.	2BB-/	-sci	.	2d\	-sci	.	2f\	-sci	.	2b-\	-sci	.	4B-/	.	4f\]	.	4b-\)	.	4b-\	.
8D\L	.	.	8D/L	.	.	.	.	.	.	.	.	.	.	.	.	.	4r	.	2r	.	4r	.	4r	.
8F\J	.	.	8F/J	.	.	.	.	.	.	.	.	.	.	.	.	.	.	.	.	.	.	.	.	.
4B-\	x	.	4B-\	.	4r	.	.	4r	.	.	4r	.	.	4r	.	.	4r	.	.	.	4r	.	4r	.
=80	=80	=80	=80	=80	=80	=80	=80	=80	=80	=80	=80	=80	=80	=80	=80	=80	=80	=80	=80	=80	=80	=80	=80	=80
!LO:PB:g=original	!	!	!LO:LB:g=original	!	!LO:LB:g=original	!	!	!	!	!	!	!	!	!LO:LB:g=original	!	!	!LO:TX:a:t=Problem&colon; 00r 00r 8	!	!LO:TX:a:t=Problem&colon; 00r 00r 8	!	!LO:TX:a:t=Problem&colon; 00r 00r 8	!	!LO:TX:a:t=Problem&colon; 00r 00r 8	!
4r	.	.	4r	.	4r	.	.	8e-\	cze-	.	8g\	cze-	.	8b-\	Cze-	.	2.r	.	2.r	.	2.r	.	2.r	.
.	.	.	.	.	.	.	.	8r	.	.	8r	.	.	8r	.	.	.	.	.	.	.	.	.	.
4E-\	8	.	4E-\	.	8E-\	Cze-	.	8B-\	-góż	.	8g\	-goż	.	8ee-\	-góż	.	.	.	.	.	.	.	.	.
.	.	.	.	.	8E-\	-goż	.	8r	.	.	8r	.	.	8r	.	.	.	.	.	.	.	.	.	.
4E-\	7	.	4E-\	.	4E-\	więc	.	8B-\	więc	.	8g\	więc	.	8dd-X\	więc	.	.	.	.	.	.	.	.	.
.	.	.	.	.	.	.	.	8r	.	.	8r	.	.	8r	.	.	.	.	.	.	.	.	.	.
=81	=81	=81	=81	=81	=81	=81	=81	=81	=81	=81	=81	=81	=81	=81	=81	=81	=81	=81	=81	=81	=81	=81	=81	=81
!	!	!	!	!	!	!	!	!	!	!	!LO:LB:g=original	!	!	!	!	!	!	!	!	!	!	!	!	!
4En\	6_ 5_	.	(>4En\	.	(>4En\	smu-	.	2B-\	smu-	.	2g\	smu-	.	2cc\	smu-	.	2.r	.	2.r	.	2.r	.	2.r	.
4G\	.	.	4G\)	.	4G\)	.	.	.	.	.	.	.	.	.	.	.	.	.	.	.	.	.	.	.
4C\	x	.	4C/	.	4C/	-tek	.	4c\	-tek	.	4en\	-tek	.	4b-\	-tek	.	.	.	.	.	.	.	.	.
=82	=82	=82	=82	=82	=82	=82	=82	=82	=82	=82	=82	=82	=82	=82	=82	=82	=82	=82	=82	=82	=82	=82	=82	=82
!	!	!	!	!	!	!	!	!LO:LB:g=original	!	!	!	!	!	!	!	!	!	!	!	!	!	!	!	!
4E-X\	4 2	.	4E-X\	.	8E-X\	tra-	.	8c\	tra-	.	8f\	tra-	.	8an\	tra-	.	2.r	.	2.r	.	2.r	.	2.r	.
.	.	.	.	.	8E-\	-pi	.	8c\	-pi	.	8f\	-pi	.	8a\	-pi	.	.	.	.	.	.	.	.	.
4D-X\	6 3-	.	4D-X\	.	4D-X\	me-	.	4d-X\	me-	.	4f\	me-	.	4b-\	me-	.	.	.	.	.	.	.	.	.
4AAn/	6 5	.	4AAn/	.	4AAn/	-go	.	4c\	-go	.	4f\	-go	.	4cc\	-go	.	.	.	.	.	.	.	.	.
=83	=83	=83	=83	=83	=83	=83	=83	=83	=83	=83	=83	=83	=83	=83	=83	=83	=83	=83	=83	=83	=83	=83	=83	=83
4BB-/	-_	.	(<4BB-/	.	(<4BB-/	Du-	.	2B-\	du-	.	2f\	du-	.	2dd-X\	Du-	.	2.r	.	2.r	.	2.r	.	2.r	.
4D-X/	.	.	4D-X/)	.	4D-X/)	.	.	.	.	.	.	.	.	.	.	.	.	.	.	.	.	.	.	.
4F\	-	.	4F\	.	4F\	-cha	.	4c\	-cha	.	4a-X\	-cha	.	4cc\	-cha,	.	.	.	.	.	.	.	.	.
=84	=84	=84	=84	=84	=84	=84	=84	=84	=84	=84	=84	=84	=84	=84	=84	=84	=84	=84	=84	=84	=84	=84	=84	=84
!	!	!	!	!	!LO:LB:g=original	!	!	!	!	!	!	!	!	!	!	!	!	!	!	!	!	!	!	!
4r	7_ n_	.	4r	.	4r	.	.	8dn\	cze-	.	8f\	cze-	.	8bn\	cze-	.	2.r	.	2.r	.	2.r	.	2.r	.
.	.	.	.	.	.	.	.	8r	.	.	8r	.	.	8r	.	.	.	.	.	.	.	.	.	.
4G\	8 _ _	.	4G\	.	8G\	Cze-	.	8d\	-goż	.	8g\	-goż	.	8b\	-goż	.	.	.	.	.	.	.	.	.
.	.	.	.	.	8G\	-goż	.	8r	.	.	8r	.	.	8r	.	.	.	.	.	.	.	.	.	.
4F\	4| 3-	.	4F\	.	4F\	więc	.	8d\	więc	.	8a-X\	więc	.	8b\	więc	.	.	.	.	.	.	.	.	.
.	.	.	.	.	.	.	.	8r	.	.	8r	.	.	8r	.	.	.	.	.	.	.	.	.	.
=85	=85	=85	=85	=85	=85	=85	=85	=85	=85	=85	=85	=85	=85	=85	=85	=85	=85	=85	=85	=85	=85	=85	=85	=85
!	!	!	!	!	!	!	!	!	!	!	!	!	!	!LO:LB:g=original	!	!	!	!	!	!	!	!	!	!
4E-\	6	.	4E-\	.	(4E-X\	smu-	.	(4e-\	smu-	.	2g\	smu-	.	(>4cc\	smu-	.	2.r	.	2.r	.	2.r	.	2.r	.
4D\	6| 3	.	4D\	.	4D\)	.	.	4Bn\)	.	.	.	.	.	4dd\)	.	.	.	.	.	.	.	.	.	.
4C\	8 3	.	4C\	.	4C\	-tek	.	4c\	-tek	.	4g\	-tek	.	4ee-\	-tek	.	.	.	.	.	.	.	.	.
=86	=86	=86	=86	=86	=86	=86	=86	=86	=86	=86	=86	=86	=86	=86	=86	=86	=86	=86	=86	=86	=86	=86	=86	=86
4F\	7 -_	.	4F\	.	8F\	tra-	.	8c\	tra-	.	8a-X\	tra-	.	8ee-\	tra-	.	2.r	.	2.r	.	2.r	.	2.r	.
.	6 _	.	.	.	8F\	-pi	.	8d\	-pi	.	8a-\	-pi	.	8dd\	-pi	.	.	.	.	.	.	.	.	.
4G\	6 4	.	4G\	.	4G\	me-	.	4e-\	me-	.	4g\	me-	.	4cc\	me-	.	.	.	.	.	.	.	.	.
4GG/	7 n	.	4GG/	.	4GG/	-go	.	4d\	-go	.	4f\	-go	.	4bn\	-go	.	.	.	.	.	.	.	.	.
=87	=87	=87	=87	=87	=87	=87	=87	=87	=87	=87	=87	=87	=87	=87	=87	=87	=87	=87	=87	=87	=87	=87	=87	=87
!	!	!	!	!	!	!	!	!	!	!	!LO:LB:g=original	!	!	!	!	!	!	!	!	!	!	!	!	!
4C\	-_	.	4C/	.	2C/	du-	.	2c\	du-	.	2e-\	du-	.	2cc\	du-	.	2.r	.	2.r	.	2.r	.	2.r	.
8E-\L	.	.	8E-\L	.	.	.	.	.	.	.	.	.	.	.	.	.	.	.	.	.	.	.	.	.
8G\J	.	.	8G\J	.	.	.	.	.	.	.	.	.	.	.	.	.	.	.	.	.	.	.	.	.
4c\	x	.	4c\	.	4C/	-cha	.	4c\	-cha	.	4e-\	-cha	.	4cc\	-cha	.	.	.	.	.	.	.	.	.
=88	=88	=88	=88	=88	=88	=88	=88	=88	=88	=88	=88	=88	=88	=88	=88	=88	=88	=88	=88	=88	=88	=88	=88	=88
!LO:LB:g=original	!	!	!	!	!	!	!	!LO:LB:g=original	!	!	!LO:HP:t=fo	!	!LO:DY:a	!	!	!	!LO:HP:t=fo	!	!LO:HP:t=fo	!	!LO:HP:t=fo	!	!LO:HP:t=fo.	!
4r	5_	.	4r	.	4AA-X/	precz	.	4c\	precz	.	4e-\	precz	f	4cc\	precz!	.	4E-/	f	4e-\	f	4cc\	f	4aa-X\	f
!	!	!	!	!LO:HP:t=fo	!	!	!	!	!	!	!	!	!	!	!	!LO:DY:a	!	!	!	!	!	!	!	!
4AA-X/	.	.	4AA-X/	f	4r	.	.	4r	.	.	4r	.	.	4r	.	f	4r	.	4r	.	4r	.	4r	.
4A\	x	.	4A\	.	4r	.	.	4r	.	.	4r	.	.	4r	.	.	4r	.	4r	.	4r	.	4r	.
=89	=89	=89	=89	=89	=89	=89	=89	=89	=89	=89	=89	=89	=89	=89	=89	=89	=89	=89	=89	=89	=89	=89	=89	=89
!	!	!	!LO:LB:g=original	!	!LO:LB:g=original	!	!	!	!	!	!	!	!	!	!	!	!	!	!	!	!	!	!LO:LB:g=original	!
4r	8_	.	4r	.	2E-\	precz	.	2G/	precz	.	2e-\	precz	.	2b-\	precz	.	4E-/	.	4e-\	.	4b-\	.	4gg\	.
8E-\L	.	.	8E-\L	.	.	.	.	.	.	.	.	.	.	.	.	.	4r	.	4r	.	4r	.	4r	.
8D\	.	.	8D\	.	.	.	.	.	.	.	.	.	.	.	.	.	.	.	.	.	.	.	.	.
8E-\	.	.	8E-\	.	4G\	ztąd	.	4B-\	ztąd	.	4e-\	ztąd	.	4e-/	ztąd	.	4G/	.	4e-\	.	4r	.	4r	.
8F\J	x	.	8F\J	.	.	.	.	.	.	.	.	.	.	.	.	.	.	.	.	.	.	.	.	.
=90	=90	=90	=90	=90	=90	=90	=90	=90	=90	=90	=90	=90	=90	=90	=90	=90	=90	=90	=90	=90	=90	=90	=90	=90
!	!	!	!	!	!	!	!	!	!	!	!	!	!	!	!	!	!	!	!	!	!LO:TX:a:t=Problem&colon; 0r 2	!	!LO:TX:a:t=Problem&colon; 0r 2	!
4G\	6	.	4G'\	.	4G\	drę-	.	4B-\	drę-	.	4e-\	drę-	.	4e-/	drę-	.	4G/	.	4e-\	.	2.r	.	2.r	.
4F\	6 4	.	4F'\	.	8.F\	-czą-	.	8.B-\	-czą-	.	8.d\	-czą-	.	8.f/	-czą-	.	4B-/	.	4f\	.	.	.	.	.
.	.	.	.	.	16F\	-ce	.	16B-\	-ce	.	16d\	-ce	.	16f/	-ce	.	.	.	.	.	.	.	.	.
4E-\	8 3	.	4E-'\	.	4E-\	cier-	.	4B-\	cier-	.	4e-\	cier-	.	4g/	cier-	.	4e-/	.	4g\	.	.	.	.	.
=91	=91	=91	=91	=91	=91	=91	=91	=91	=91	=91	=91	=91	=91	=91	=91	=91	=91	=91	=91	=91	=91	=91	=91	=91
!	!	!	!	!	!	!	!	!	!	!	!	!	!	!LO:LB:g=original	!	!	!	!	!	!	!	!	!	!
.	.	.	.	.	.	.	.	.	.	.	.	.	.	8qqb-/	.	.	.	.	.	.	.	.	.	.
4D\	6 5	.	4D'\	.	4D\	-pie-	.	4B-\	-pie-	.	4f\	-pie-	.	4a-X\	-pie-	.	4B-/	.	4f\	.	2.r	.	2.r	.
4E-\	8 3	.	4E-'\	.	4E-\	-nia	.	4B-\	-nia	.	4e-\	-nia	.	4g\	-nia	.	4G/	.	4e-\	.	.	.	.	.
4r	.	.	4r	.	4r	.	.	4r	.	.	4r	.	.	4r	.	.	4r	.	4r	.	.	.	.	.
=92	=92	=92	=92	=92	=92	=92	=92	=92	=92	=92	=92	=92	=92	=92	=92	=92	=92	=92	=92	=92	=92	=92	=92	=92
!	!	!	!	!	!	!	!	!	!	!	!LO:LB:g=original	!	!	!	!	!	!LO:HP:t=fo	!	!	!	!	!	!	!
4r	.	.	4r	.	4E-\	precz	.	4B-\	precz	.	4g\	precz	.	4ee-\	precz	.	4E-/	f	4e-'\	.	4ee-\	.	4gg\	.
4E-\	.	.	4E-\	.	4r	.	.	4B-\	precz	.	4g\	precz	.	4r	.	.	4r	.	4r	.	4r	.	4r	.
!	!	!	!	!	!	!	!LO:HP:t=for	!	!	!	!	!	!	!	!	!	!	!	!	!	!	!	!	!
!	!	!	!	!	!	!	!LO:DY:a	!	!	!	!	!	!	!	!	!	!	!	!	!	!	!	!	!
4e-\	.	.	4e-\	.	4r	.	f	4r	.	.	4g\	precz	.	4ee-\	precz	.	4e-\	.	4r	.	4ee-\	.	4gg\	.
=93	=93	=93	=93	=93	=93	=93	=93	=93	=93	=93	=93	=93	=93	=93	=93	=93	=93	=93	=93	=93	=93	=93	=93	=93
!	!	!	!	!	!	!	!	!	!	!	!	!	!	!	!	!	!	!	!LO:HP:rf	!	!LO:HP:t=rf	!	!	!
4r	6_	.	4r	.	2D-X\	precz	.	2B-\	precz	.	2f\	precz	.	2dd-X\	precz	.	2.d-X^<\	.	2.f^<\	rfz > ]]	2.dd-X\	rfz	2.ff\	f
2D-X\	.	.	2D-X\	fz	.	.	.	.	.	.	.	.	.	.	.	.	.	.	.	.	.	.	.	.
.	.	.	.	.	4Dn\	ztąd	.	4B-\	ztąd	.	4f\	ztąd	.	4f/	ztąd	.	.	.	.	.	.	.	.	.
=94	=94	=94	=94	=94	=94	=94	=94	=94	=94	=94	=94	=94	=94	=94	=94	=94	=94	=94	=94	=94	=94	=94	=94	=94
!	!	!	!	!	!LO:LB:g=original	!	!	!LO:LB:g=original	!	!	!	!	!	!	!	!	!	!	!	!	!	!	!	!
4C\	8_ 3	.	4C\	.	4C/	drę-	.	4c\	drę-	.	4en\	drę-	.	4en/	drę-	.	4c/	.	4g\	.	4r	.	4eeX\	.
4Dn\	_ 3	.	4Dn\	.	8.Dn\	-czą-	.	8.c\	-czą-	.	8.f\	-czą-	.	8.cc\	-czą-	.	4r	.	4r	.	4cc\	.	4ff\	.
.	.	.	.	.	16D\	-ce	.	16c\	-ce	.	16f\	-ce	.	16cc\	-ce	.	.	.	.	.	.	.	.	.
4En\	6 5	.	4En\	.	4En\	cier-	.	4c\	cier-	.	4g\	cier-	.	4b-\	cier-	.	4r	.	4r	.	4b-\	.	4gg\	.
=95	=95	=95	=95	=95	=95	=95	=95	=95	=95	=95	=95	=95	=95	=95	=95	=95	=95	=95	=95	=95	=95	=95	=95	=95
!LO:LB:g=original	!	!	!	!	!	!	!	!	!	!	!	!	!	!	!	!	!LO:TX:a:t=Problem&colon; 00r 0r 1r 7	!	!LO:TX:a:t=Problem&colon; 00r 0r 1r 7	!	!	!	!	!
8F\L	-_	.	8F\L	.	2F\	-pie-	.	2c\	-pie-	.	2g\	-pie-	.	2b-\	-pie-	.	2.r	.	2.r	.	(2b-\	.	(2gg\	.
8En\	.	.	8En\	.	.	.	.	.	.	.	.	.	.	.	.	.	.	.	.	.	.	.	.	.
8F\	.	.	8F\	.	.	.	.	.	.	.	.	.	.	.	.	.	.	.	.	.	.	.	.	.
8G\J	.	.	8G\J	.	.	.	.	.	.	.	.	.	.	.	.	.	.	.	.	.	.	.	.	.
4A-X\	x	.	4A-X\	.	4F\	-nia	.	4c\	-nia	.	4f\	-nia	.	4a-X\	-nia	.	.	.	.	.	4a-X\)	.	4ff\)	.
=96	=96	=96	=96	=96	=96	=96	=96	=96	=96	=96	=96	=96	=96	=96	=96	=96	=96	=96	=96	=96	=96	=96	=96	=96
!	!	!	!	!	!	!	!	!	!	!	!	!	!	!LO:LB:g=original	!	!LO:DY:a	!	!	!	!	!LO:TX:a:t=Problem&colon; 00r 0r 6	!	!LO:TX:a:t=Problem&colon; 00r 0r 6	!
!LO:TX:a:t=all 8va	!	!	!	!	!	!	!	!	!	!	!	!	!	!LO:HP:t=po	!	!	!	!	!	!	!	!	!	!
4AA-X/	.	.	4AA-X/	p	4A-X\	u-	.	4A-X\	u-	.	4a-X\	u-	.	4a-X\	u-	p	2.r	.	2.r	.	2.r	.	2.r	.
4BB-/	.	.	4BB-/	.	4B-\	-fai-	.	4B-\	-fai-	.	4b-X\	-fai-	.	4b-\	-fai-	.	.	.	.	.	.	.	.	.
4C/	.	.	4C/	.	4c\	-my	.	4c\	-my	.	4cc\	-my	.	4cc\	-my	.	.	.	.	.	.	.	.	.
=97	=97	=97	=97	=97	=97	=97	=97	=97	=97	=97	=97	=97	=97	=97	=97	=97	=97	=97	=97	=97	=97	=97	=97	=97
!	!	!	!LO:LB:g=original	!	!	!	!	!	!	!	!LO:LB:g=original	!	!	!	!	!	!	!	!	!	!	!	!	!
2D-X\	.	.	2D-X\	.	2d-X\	w_Bo-	.	2d-X\	w_Bo-	.	2dd-X\	w_Bo-	.	2dd-X\	w_Bo-	.	2.r	.	2.r	.	2.r	.	2.r	.
4D-\	.	.	4D-\	.	4d-\	-gu	.	4d-\	-gu	.	4dd-\	-gu	.	4dd-\	-gu	.	.	.	.	.	.	.	.	.
=98	=98	=98	=98	=98	=98	=98	=98	=98	=98	=98	=98	=98	=98	=98	=98	=98	=98	=98	=98	=98	=98	=98	=98	=98
4D-X\	.	.	4D-X\	.	4d-X\	wnim	.	4d-X\	wnim	.	4dd-X\	wnim	.	4dd-X\	wnim	.	2.r	.	2.r	.	2.r	.	2.r	.
4AA-X/	.	.	4AA-X/	.	8.A-X\	ca-	.	8.A-X\	ca-	.	8.a-X\	ca-	.	8.a-X\	ca-	.	.	.	.	.	.	.	.	.
.	.	.	.	.	16A-\	-ła	.	16A-\	-ła	.	16a-\	-ła	.	16a-\	-ła	.	.	.	.	.	.	.	.	.
4BB-/	.	.	4BB-/	.	4B-\	o-	.	4B-\	o-	.	4b-\	o-	.	4b-\	o-	.	.	.	.	.	.	.	.	.
=99	=99	=99	=99	=99	=99	=99	=99	=99	=99	=99	=99	=99	=99	=99	=99	=99	=99	=99	=99	=99	=99	=99	=99	=99
!	!	!	!	!LO:HP:t=crescendo	!LO:LB:g=original	!	!	!LO:LB:g=original	!	!	!	!	!	!	!	!	!	!	!	!	!	!	!	!
2C-X/	.	.	2BBn/	<	2Bn\	-tu-	.	2Bn\	-tu-	.	2bn\	-tu-	.	2bn\	-tu-	.	2.r	.	2.r	.	2.r	.	2.r	.
!	!	!	!	!	!	!	!	!	!	!	!	!	!	!LO:TX:a:t=cres.	!	!	!	!	!	!	!	!	!	!
4C-/	.	.	4BB/	.	4B\	-cha	.	4B\	-cha	.	4b\	-cha	.	4b\	-cha	.	.	.	.	.	.	.	.	.
=100	=100	=100	=100	=100	=100	=100	=100	=100	=100	=100	=100	=100	=100	=100	=100	=100	=100	=100	=100	=100	=100	=100	=100	=100
4BBn/	.	.	4BBn/	.	4BBn/	u-	.	4Bn\	u-	.	4Bn\	u-	.	4bn\	u-	.	2.r	.	2.r	.	2.r	.	2.r	.
4C#X/	.	.	4C#X/	.	4C#X/	-fai-	.	4c#X\	-fai-	.	4c#X\	-fai-	.	4cc#X\	-fai-	.	.	.	.	.	.	.	.	.
4D#X/	.	.	4D#X/	.	4D#X/	-my	.	4d#X\	-my	.	4d#X\	-my	.	4dd#X\	-my	.	.	.	.	.	.	.	.	.
=101	=101	=101	=101	=101	=101	=101	=101	=101	=101	=101	=101	=101	=101	=101	=101	=101	=101	=101	=101	=101	=101	=101	=101	=101
2En\	.	.	2En\	.	2En\	w_Bo-	.	2en\	w_Bo-	.	2en\	w_Bo-	.	2een\	w_Bo-	.	2.r	.	2.r	.	2.r	.	2.r	.
4E\	.	.	4E\	.	4E\	-gu	.	4e\	-gu	.	4e\	-gu	.	4ee\	-gu	.	.	.	.	.	.	.	.	.
=102	=102	=102	=102	=102	=102	=102	=102	=102	=102	=102	=102	=102	=102	=102	=102	=102	=102	=102	=102	=102	=102	=102	=102	=102
!LO:LB:g=original	!	!	!	!	!	!	!LO:DY:a	!	!	!	!LO:LB:g=original	!	!LO:DY:a	!LO:LB:g=original	!	!LO:DY:a	!	!	!	!	!LO:LB:g=original	!	!LO:HP:t=fo	!
!	!	!	!	!LO:HP:t=fo	!	!	!LO:HP:t=ffor	!	!	!	!LO:HP:t=ffor	!	!	!LO:HP:t=fo	!	!	!	!	!LO:HP:fo	!	!LO:HP:t=fo	!	!	!
4C/	8 n	.	4Cn/	f	4Cn/	u-	ff	4c\	u-	.	4en\	u-	ff	4ccn\	u-	f	2G/	.	2g\	f	4cc\	f	4cc\	f
!	!	!	!	!	!	!	!	!LO:HP:t=for	!	!LO:DY:a	!	!	!	!	!	!	!	!	!	!	!	!	!	!
4C/	7n 2	.	4C/	.	4C/	-fai-	.	4Bn\	-fai-	f	4f\	-fai-	.	4ddn\	-faj-	.	.	.	.	.	4bX\	.	4dd\	.
4C/	7- 5 3n	.	4C/	.	4C/	-my	.	4B-X\	-my	.	4g\	-my	.	4een\	-my	.	4g\	.	4g\	.	4b-\	.	4eeX\	.
=103	=103	=103	=103	=103	=103	=103	=103	=103	=103	=103	=103	=103	=103	=103	=103	=103	=103	=103	=103	=103	=103	=103	=103	=103
4FF/	n	.	4FF/	.	2FF/	w_Bo-	.	2A\	w_Bo-	.	2an\	w_Bo-	.	2ff\	w_Bo-	.	2f\	.	2f\	.	2a\	.	2ff\	.
8AA/L	.	.	8AA/L	.	.	.	.	.	.	.	.	.	.	.	.	.	.	.	.	.	.	.	.	.
8C/J	.	.	8C/J	.	.	.	.	.	.	.	.	.	.	.	.	.	.	.	.	.	.	.	.	.
4F\	.	.	4F\	.	4FF/	-gu	.	4c\	-gu	.	4a\	-gu	.	4f/	-gu	.	4r	.	4r	.	4r	.	4r	.
*clefC4	*	*	*clefC4	*	*	*	*	*	*	*	*	*	*	*	*	*	*	*	*	*	*	*	*	*
=104	=104	=104	=104	=104	=104	=104	=104	=104	=104	=104	=104	=104	=104	=104	=104	=104	=104	=104	=104	=104	=104	=104	=104	=104
!	!	!	!	!	!LO:TX:a:t=Problem&colon; 0r 2	!	!	!	!	!	!LO:TX:a:t=Problem&colon; 0r 2	!	!	!	!	!LO:DY:a	!LO:TX:a:t=Problem&colon; 00r 00r 1r 9	!	!LO:TX:a:t=Problem&colon; oor oor 1r 9	!	!LO:TX:a:t=Problem&colon; 00r 0r 6	!	!LO:TX:a:t=Problem&colon; 00r 0r 1r 7	!
!	!	!	!	!LO:HP:t=po	!	!	!	!	!	!	!	!	!	!LO:HP:t=po	!	!	!	!	!	!	!	!	!	!
4e-\	2	.	4e-X\	p	2.r	.	.	4e-X\	u-	.	2.r	.	.	4f/	u-	p	2.r	.	2.r	.	2.r	.	2.r	.
4e-\	.	.	4e-\	.	.	.	.	4e-\	-fai-	.	.	.	.	4g/	-faj-	.	.	.	.	.	.	.	.	.
4e-\	.	.	4e-\	.	.	.	.	4e-\	-my	.	.	.	.	4a/	-my	.	.	.	.	.	.	.	.	.
=105	=105	=105	=105	=105	=105	=105	=105	=105	=105	=105	=105	=105	=105	=105	=105	=105	=105	=105	=105	=105	=105	=105	=105	=105
!	!	!	!LO:LB:g=original	!	!	!	!	!	!	!	!	!	!	!	!	!	!	!	!	!	!	!	!	!
4d\	6	.	(>4d\	.	2.r	.	.	(>4d\	w_Bo-	.	2.r	.	.	2b-\	w_Bo-	.	2.r	.	2.r	.	2.r	.	2.r	.
4B-\	.	.	4B-\)	.	.	.	.	4B-\)	.	.	.	.	.	.	.	.	.	.	.	.	.	.	.	.
4d\	.	.	4d\	.	.	.	.	4d\	-gu	.	.	.	.	4b-\	-gu	.	.	.	.	.	.	.	.	.
*clefF4	*	*	*clefF4	*	*	*	*	*	*	*	*	*	*	*	*	*	*	*	*	*	*	*	*	*
=106	=106	=106	=106	=106	=106	=106	=106	=106	=106	=106	=106	=106	=106	=106	=106	=106	=106	=106	=106	=106	=106	=106	=106	=106
!	!	!	!	!	!LO:LB:g=original	!	!LO:DY:a	!LO:LB:g=original	!	!	!	!	!	!	!	!	!	!	!	!	!	!	!	!
!	!	!	!	!LO:HP:t=po	!	!	!LO:HP:t=po	!	!	!	!	!	!	!	!	!	!	!	!	!	!	!	!	!
4F\	8_ 3	.	4F\	p	4F\	u-	p	4f\	wnim	.	4e-\	u-	.	4a\	wnim	.	2.r	.	2.r	.	2.r	.	2.r	.
4G\	_ 3	.	4G\	.	4G\	-fai-	.	8.f\	ca-	.	4e-\	-fai-	.	8.b-\	ca-	.	.	.	.	.	.	.	.	.
.	.	.	.	.	.	.	.	16f\	-ła	.	.	.	.	16b-\	-ła	.	.	.	.	.	.	.	.	.
4A\	_ 3	.	4A\	.	4A\	-my	.	4f\	o-	.	4e-\	-my	.	4cc\	o-	.	.	.	.	.	.	.	.	.
=107	=107	=107	=107	=107	=107	=107	=107	=107	=107	=107	=107	=107	=107	=107	=107	=107	=107	=107	=107	=107	=107	=107	=107	=107
2B-\	x	.	2B-\	.	2B-\	w_Bo-	.	(>4B-\	-tu-	.	(>4d\	w-Bo	.	4dd\	-tu-	.	2.r	.	2.r	.	2.r	.	2.r	.
.	.	.	.	.	.	.	.	4d\)	.	.	4B-\)	.	.	8ff\L	.	.	.	.	.	.	.	.	.	.
.	.	.	.	.	.	.	.	.	.	.	.	.	.	8ee-\J	.	.	.	.	.	.	.	.	.	.
4BB-/	.	.	4BB-/	.	4BB-/	-gu	.	4B-\	-cha	.	4d\	-gu	.	4dd\	-cha	.	.	.	.	.	.	.	.	.
=108	=108	=108	=108	=108	=108	=108	=108	=108	=108	=108	=108	=108	=108	=108	=108	=108	=108	=108	=108	=108	=108	=108	=108	=108
!	!	!	!	!	!	!	!	!	!	!	!	!	!	!LO:LB:g=original	!	!	!	!	!	!	!	!	!	!
4AA/	6 5_	.	4AA/	.	4AA/	wnim	.	4F/	wnim	.	4f\	wnim	.	4ee-\	wnim	.	2.r	.	2.r	.	2.r	.	2.r	.
4BB-/	6 _	.	4BB-/	.	8.BB-/	ca-	.	4G/	zrżó-	.	8.f\	ca-	.	4ee-\	zrżó-	.	.	.	.	.	.	.	.	.
.	.	.	.	.	16BB-/	-ła	.	.	.	.	16f\	-ła	.	.	.	.	.	.	.	.	.	.	.	.
4C/	6_	.	4C/	.	4C/	o-	.	4A/	-dło	.	4f\	o-	.	4ee-\	-dło	.	.	.	.	.	.	.	.	.
=109	=109	=109	=109	=109	=109	=109	=109	=109	=109	=109	=109	=109	=109	=109	=109	=109	=109	=109	=109	=109	=109	=109	=109	=109
!	!	!	!	!	!	!	!	!	!	!	!LO:LB:g=original	!	!	!	!	!	!	!	!	!	!	!	!	!
4D\	6_	.	4D\	.	4D\	-tu-	.	2B-\	me-	.	(>4B-\	-tu-	.	(>4dd\	me-	.	2.r	.	2.r	.	2.r	.	2.r	.
8F\L	.	.	8F\L	.	8F\L	.	.	.	.	.	4d\)	.	.	4b-\)	.	.	.	.	.	.	.	.	.	.
8E-\J	.	.	8E-\J	.	8E-\J	.	.	.	.	.	.	.	.	.	.	.	.	.	.	.	.	.	.	.
4D\	x	.	4D\	.	4D\	-cha	.	4B-\	-go	.	4B-\	-cha	.	4dd\	-go	.	.	.	.	.	.	.	.	.
=110	=110	=110	=110	=110	=110	=110	=110	=110	=110	=110	=110	=110	=110	=110	=110	=110	=110	=110	=110	=110	=110	=110	=110	=110
!LO:LB:g=original	!	!	!	!	!	!	!	!	!	!	!	!	!	!	!	!	!	!	!	!	!	!	!	!
4E-\	4 2_	.	4E-\	.	4E-\	wnim	.	4A\	me-	.	4F/	wnim	.	4ff\	me-	.	2.r	.	2.r	.	4f/	.	2.r	.
4E-\	5 _	.	4E-\	.	4E-\	zrżó-	.	4B-\	-go	.	4G/	zrżó-	.	4ff\	-go	.	.	.	.	.	4g/	.	.	.
4E-\	6 _	.	4E-\	.	4E-\	-dło	.	4c\	zba-	.	4A/	-dło	.	4ff\	zba-	.	.	.	.	.	4a/	.	.	.
=111	=111	=111	=111	=111	=111	=111	=111	=111	=111	=111	=111	=111	=111	=111	=111	=111	=111	=111	=111	=111	=111	=111	=111	=111
!	!	!	!	!	!LO:LB:g=original	!	!	!LO:LB:g=original	!	!	!	!	!	!	!	!	!	!	!	!	!	!	!	!
(<4D/	6_ 3	.	(<4D/	.	(<4D/	me-	.	4d\	-wie-	.	2B-/	me-	.	(>4b-\	-wie-	.	2.r	.	2.r	.	2b-\	.	4r	.
4BB-/)	.	.	4BB-/)	.	4BB-/)	.	.	8f\L	.	.	.	.	.	4dd\)	.	.	.	.	.	.	.	.	4r	.
.	.	.	.	.	.	.	.	8e-\J	.	.	.	.	.	.	.	.	.	.	.	.	.	.	.	.
!	!	!	!	!	!	!	!	!	!	!	!	!	!	!	!	!	!	!	!	!	!	!	!LO:HP:t=po	!
4D'/	.	.	4D'/	.	4D/	-go	.	4d\	-nia	.	4B-/	-go	.	4b-\	-nia	.	.	.	.	.	4f/	.	4ff\	p
=112	=112	=112	=112	=112	=112	=112	=112	=112	=112	=112	=112	=112	=112	=112	=112	=112	=112	=112	=112	=112	=112	=112	=112	=112
4F\	7_ 3	.	4F\	.	4F\	me-	.	4e-\	wnim	.	4A/	me-	.	4f/	wnim	.	2.r	.	2.r	.	4f/	.	2ff\	.
4FF/	_ 4	.	4FF/	.	4F\	-go	.	4e-\	zrżó-	.	4B-/	-go	.	4g/	zrżó-	.	.	.	.	.	4f/	.	.	.
4F\	_ 5	.	4F\	.	4F\	zba-	.	4e-\	-dło	.	4c/	zba-	.	4a/	-dło	.	.	.	.	.	4f/	.	4ff\	.
=113	=113	=113	=113	=113	=113	=113	=113	=113	=113	=113	=113	=113	=113	=113	=113	=113	=113	=113	=113	=113	=113	=113	=113	=113
!	!	!	!	!	!	!	!	!	!	!	!	!	!	!	!	!	!LO:LB:g=original	!	!	!	!	!	!	!
(4BB-/	.	.	4BB-/	.	(<4BB-/	-wie-	.	(>4d\	me-	.	4d\	-wie-	.	2b-\	me-	.	4r	.	4r	.	[<2.f/	.	2.ff\	.
4D/)	.	.	4D/	.	4D/)	.	.	4B-\)	.	.	8f\L	.	.	.	.	.	4r	.	4r	.	.	.	.	.
.	.	.	.	.	.	.	.	.	.	.	8e-\J	.	.	.	.	.	.	.	.	.	.	.	.	.
!	!	!	!	!	!	!	!	!	!	!	!	!	!	!	!	!	!	!	!LO:HP:po	!	!	!	!	!
4BB-/	.	.	4BB-/	.	4BB-/	-nia	.	4d\	-go	.	4d\	-nia	.	4b-\	-go	.	4f\	.	4f\	p	.	.	.	.
=114	=114	=114	=114	=114	=114	=114	=114	=114	=114	=114	=114	=114	=114	=114	=114	=114	=114	=114	=114	=114	=114	=114	=114	=114
!	!	!	!LO:LB:g=original	!	!	!	!	!	!	!	!LO:LB:g=original	!	!	!LO:LB:g=original	!	!	!	!	!	!	!	!	!	!
4FF/	5_ 3	.	4FF/	.	4FF/	me-	.	4f\	me-	.	4e-\	me-	.	4a\	me-	.	4f\	.	4f\	.	2.f/_<	.	2ff\	.
4GG/	_ 3	.	4GG/	.	4GG/	-go	.	4f\	-go	.	4e-\	-go	.	4b-\	-go	.	4f\	.	4f\	.	.	.	.	.
4AA/	_ 3	.	4AA/	.	4AA/	zba-	.	4f\	zba-	.	4e-\	zba-	.	4cc\	zba-	.	4f\	.	4f\	.	.	.	4ff\	.
=115	=115	=115	=115	=115	=115	=115	=115	=115	=115	=115	=115	=115	=115	=115	=115	=115	=115	=115	=115	=115	=115	=115	=115	=115
!	!	!	!	!	!	!	!	!	!	!	!	!	!	!	!	!	!	!	!LO:LB:g=original	!	!	!	!	!
4BB-/	3	.	4BB-/	.	2BB-/	-wie-	.	(>4f\	-wie-	.	2d\	-wie-	.	4dd\	-wie-	.	2.B-/	.	2.f\	.	2.f/]	.	2.ff\	.
8D/L	.	.	8D/L	.	.	.	.	4d\)	.	.	.	.	.	8ff\L	.	.	.	.	.	.	.	.	.	.
8C/J	.	.	8C/J	.	.	.	.	.	.	.	.	.	.	8ee-\J	.	.	.	.	.	.	.	.	.	.
4BB-/	.	.	4BB-/	.	4BB-/	-nia	.	4B-\	-nia	.	4f\	-nia	.	4dd\	-nia	.	.	.	.	.	.	.	.	.
=116	=116	=116	=116	=116	=116	=116	=116	=116	=116	=116	=116	=116	=116	=116	=116	=116	=116	=116	=116	=116	=116	=116	=116	=116
!	!	!	!	!LO:HP:t=ffo	!LO:LB:g=original	!	!LO:HP:t=ffo	!LO:HP:t=for	!	!LO:DY:a	!LO:HP:t=fo	!	!	!LO:HP:t=for	!	!	!LO:HP:t=fo	!	!LO:HP:t=ffo	!	!LO:HP:t=ffo	!	!LO:HP:t=ffo	!
4E-\	.	.	4E-\	ff	4E-\	u-	ff	4B-\	u-	f	4g\	u-	f	4ee-\	u-	f	4G/	f	4e-\	ff	4e-/	ff	2gg\	ff
4B-\	.	.	4B-\	.	4E-\	-fai-	.	4B-\	-fai-	.	4g\	-fai-	.	4ee-\	-fai-	.	4G/	.	4e-\	.	4g/	.	.	.
4G\	.	.	4G\	.	4E-\	-my	.	4B-\	-my	.	4g\	-my	.	4ee-\	-my	.	4G/	.	4e-\	.	4b-\	.	4gg\	.
=117	=117	=117	=117	=117	=117	=117	=117	=117	=117	=117	=117	=117	=117	=117	=117	=117	=117	=117	=117	=117	=117	=117	=117	=117
!	!	!	!	!	!	!	!	!LO:LB:g=original	!	!	!	!	!	!	!	!	!	!	!	!	!	!	!LO:LB:g=original	!
2.E-;\	.	.	[>2.E-;\	.	2.E-;\	w_Bo-	.	2.B-;\	w_Bo-	.	2.g;\	w_Bo-	.	2.ee-;\	w_Bo-	.	2.G;/	.	2.e-;\	.	2.b-;\	.	2.gg;\	.
=118	=118	=118	=118	=118	=118	=118	=118	=118	=118	=118	=118	=118	=118	=118	=118	=118	=118	=118	=118	=118	=118	=118	=118	=118
!LO:LB:g=original	!	!	!	!	!	!	!	!	!	!	!	!	!	!	!	!	!	!	!	!	!	!	!	!
2E-\	.	.	2E-\]	.	2E-\	-gu	.	2B-\	-gu	.	2g\	-gu	.	2e-/	-gu	.	2.r	.	2.r	.	2.r	.	2.r	.
4r	.	.	4r	.	4r	.	.	4r	.	.	4r	.	.	4r	.	.	.	.	.	.	.	.	.	.
=119	=119	=119	=119	=119	=119	=119	=119	=119	=119	=119	=119	=119	=119	=119	=119	=119	=119	=119	=119	=119	=119	=119	=119	=119
*M4/4	*	*	*M4/4	*	*M4/4	*	*	*M4/4	*	*	*M4/4	*	*	*M4/4	*	*	*M4/4	*	*M4/4	*	*M4/4	*	*M4/4	*
*met(c)	*	*	*met(c)	*	*met(c)	*	*	*met(c)	*	*	*met(c)	*	*	*met(c)	*	*	*met(c)	*	*met(c)	*	*met(c)	*	*met(c)	*
!	!	!	!	!	!	!	!	!	!	!	!	!	!	!	!	!	!LO:TX:a:t=Problem&colon; 00r 4	!	!LO:TX:a:t=Problem&colon; 00r 4	!	!LO:TX:a:t=Problem&colon; 00r 4	!	!LO:TX:a:t=Problem&colon; 00r 4	!
!	!	!	!	!	!	!	!	!	!	!	!	!	!	!	!	!	!LO:TX:a:t=Largo	!	!LO:TX:a:t=Largo	!	!LO:TX:a:t=Largo	!	!LO:TX:a:t=Largo	!
4r	.	.	4r	.	4r	.	.	4r	.	.	4r	.	.	4r	.	.	1r	.	1r	.	1r	.	1r	.
!	!	!	!	!	!LO:TX:a:t=Largo	!	!	!LO:TX:a:t=Largo	!	!	!LO:TX:a:t=Largo	!	!	!LO:TX:a:t=Largo	!	!	!	!	!	!	!	!	!	!
4E-\	4 2_	.	4E-\	.	4E-\	wnim	.	4B-\	wnim	.	4f\	wnim	.	4f/	wnim	.	.	.	.	.	.	.	.	.
4E-\	5 _	.	4E-\	.	4E-\	zrżó-	.	4B-\	zrżó-	.	4f\	zrzód-	.	4g/	zrżó-	.	.	.	.	.	.	.	.	.
4E-\	6 _	.	4E-\	.	4E-\	-dło	.	4B-\	-dło	.	4f\	-ło	.	4a/	-dło	.	.	.	.	.	.	.	.	.
=120	=120	=120	=120	=120	=120	=120	=120	=120	=120	=120	=120	=120	=120	=120	=120	=120	=120	=120	=120	=120	=120	=120	=120	=120
!	!	!	!	!	!	!	!	!	!	!	!	!	!	!LO:LB:g=original	!	!	!	!	!	!	!	!	!	!
2D\	6 3	.	2D\	.	2D\	me-	.	2B-\	me-	.	2f\	me-	.	2b-\	me-	.	1r	.	1r	.	1r	.	1r	.
4E-\	.	.	4E-\	.	4E-\	-go	.	4B-\	-go	.	4g\	-go	.	4g\	-go	.	.	.	.	.	.	.	.	.
4C\	.	.	4C\	.	4C\	zba-	.	4e-\	zba-	.	4g\	zba-	.	4cc\	zba-	.	.	.	.	.	.	.	.	.
=121	=121	=121	=121	=121	=121	=121	=121	=121	=121	=121	=121	=121	=121	=121	=121	=121	=121	=121	=121	=121	=121	=121	=121	=121
!	!	!	!LO:LB:g=original	!	!LO:LB:g=original	!	!	!	!	!	!	!	!	!	!	!	!	!	!	!	!	!	!	!
2F\	6 4	.	2F\	.	1F	-wie-	.	(>2d\	-wie-	.	(>2f\	-wie-	.	2.b-\	-wie-	.	1r	.	1r	.	1r	.	1r	.
2FF/	7_ 5_ 4	.	2FF/	.	.	.	.	2c\)	.	.	2e-\)	.	.	.	.	.	.	.	.	.	.	.	.	.
.	_ _ 3	.	.	.	.	.	.	.	.	.	.	.	.	4a\	.	.	.	.	.	.	.	.	.	.
=122	=122	=122	=122	=122	=122	=122	=122	=122	=122	=122	=122	=122	=122	=122	=122	=122	=122	=122	=122	=122	=122	=122	=122	=122
2BB-/	5 3	.	2BB-/	.	2BB-/	-nia	.	2B-\	-nia	.	2d\	-nia	.	2b-\	-nia.	.	1r	.	1r	.	1r	.	1r	.
2r	.	.	2r	.	2r	.	.	2r	.	.	2r	.	.	2r	.	.	.	.	.	.	.	.	.	.
==	==	==	==	==	==	==	==	==	==	==	==	==	==	==	==	==	==	==	==	==	==	==	==	==
*-	*-	*-	*-	*-	*-	*-	*-	*-	*-	*-	*-	*-	*-	*-	*-	*-	*-	*-	*-	*-	*-	*-	*-	*-
!!!system-decoration: s1,s2,s3,s4,s5,s6,s7,s8,s9,s10
!!!RDF**kern: <= below
!!!RDF**kern: >= above
!!!ENC: Anna Matuszewska
!!!END: 2020-04-09
